;FLAVOR:Marlin
;TIME:6647
;Filament used: 15.2996m
;Layer height: 0.4
;MINX:18.85
;MINY:25.62
;MINZ:0.2
;MAXX:201.15
;MAXY:189.15
;MAXZ:3
;Generated with Cura_SteamEngine 5.2.1
M140 S60
M105
M190 S60
M104 S210
M105
M109 S210
M82 ;absolute extrusion mode
M201 X500.00 Y500.00 Z100.00 E5000.00 ;Setup machine max acceleration
M203 X500.00 Y500.00 Z10.00 E50.00 ;Setup machine max feedrate
M204 P500.00 R1000.00 T500.00 ;Setup Print/Retract/Travel acceleration
M205 X8.00 Y8.00 Z0.40 E5.00 ;Setup Jerk
M220 S100 ;Reset Feedrate
M221 S100 ;Reset Flowrate

G28 ;Home
G29

G92 E0 ;Reset Extruder
G1 Z2.0 F3000 ;Move Z Axis up
G1 X10.1 Y20 Z0.28 F5000.0 ;Move to start position
G1 X10.1 Y200.0 Z0.28 F1500.0 E15 ;Draw the first line
G1 X10.4 Y200.0 Z0.28 F5000.0 ;Move to side a little
G1 X10.4 Y20 Z0.28 F1500.0 E30 ;Draw the second line
G92 E0 ;Reset Extruder
G1 Z2.0 F3000 ;Move Z Axis up
G92 E0
G92 E0
G1 F1500 E-6
;LAYER_COUNT:8
;LAYER:0
M107
M205 X7 Y7
;MESH:Cable-Cover.stl(29)
G0 F9000 X77.676 Y39.02 Z0.2
;TYPE:WALL-INNER
G1 F1500 E0
G1 F1800 X77.676 Y26.52 E0.65481
G1 X71.426 Y26.52 E0.98221
G1 X20.176 Y26.52 E3.66693
G1 X20.176 Y39.02 E4.32174
G1 X76.134 Y39.02 E7.25308
G0 F1620 X77.676 Y39.02
G0 F9000 X78.376 Y39.72
;TYPE:WALL-OUTER
G1 F1800 X78.376 Y25.82 E8.02168
G1 X71.426 Y25.82 E8.40598
G1 X19.476 Y25.82 E11.27856
G1 X19.476 Y39.72 E12.04716
G1 X76.834 Y39.72 E15.21877
G0 F1620 X78.376 Y39.72
G0 F9000 X77.706 Y39.05
G0 X77.426 Y38.39
G0 X77.046 Y38.39
;TYPE:SKIN
G1 F1800 X77.046 Y32.77 E15.54588
G1 X77.046 Y27.15 E15.87299
G1 X20.806 Y27.15 E19.14646
G1 X20.806 Y38.39 E19.80068
G1 X75.504 Y38.39 E22.98439
G0 F1620 X77.046 Y38.39
G0 F9000 X77.426 Y38.39
G0 X77.426 Y28.187
G0 X76.694 Y28.187
G1 F1800 X76.007 Y27.5 E23.04094
G0 F9000 X75.017 Y27.5
G1 F1800 X76.694 Y29.177 E23.17898
G0 F9000 X76.694 Y30.167
G1 F1800 X74.027 Y27.5 E23.39852
G0 F9000 X73.037 Y27.5
G1 F1800 X76.694 Y31.157 E23.69954
G0 F9000 X76.694 Y32.147
G1 F1800 X72.047 Y27.5 E24.08206
G0 F9000 X71.057 Y27.5
G1 F1800 X76.694 Y33.137 E24.54607
G0 F9000 X76.694 Y34.127
G1 F1800 X70.067 Y27.5 E25.09156
G0 F9000 X69.077 Y27.5
G1 F1800 X76.694 Y35.117 E25.71856
G0 F9000 X76.694 Y36.106
G1 F1800 X68.088 Y27.5 E26.42695
G0 F9000 X67.098 Y27.5
G1 F1800 X76.694 Y37.096 E27.21685
G0 F9000 X76.647 Y38.039
G1 F1800 X66.108 Y27.5 E28.08436
G0 F9000 X65.118 Y27.5
G1 F1800 X75.657 Y38.039 E28.95187
G0 F9000 X74.667 Y38.039
G1 F1800 X64.128 Y27.5 E29.81939
G0 F9000 X63.138 Y27.5
G1 F1800 X73.677 Y38.039 E30.6869
G0 F9000 X72.687 Y38.039
G1 F1800 X62.148 Y27.5 E31.55442
G0 F9000 X61.158 Y27.5
G1 F1800 X71.697 Y38.039 E32.42193
G0 F9000 X70.707 Y38.039
G1 F1800 X60.168 Y27.5 E33.28944
G0 F9000 X59.178 Y27.5
G1 F1800 X69.717 Y38.039 E34.15696
G0 F9000 X68.727 Y38.039
G1 F1800 X58.188 Y27.5 E35.02447
G0 F9000 X57.198 Y27.5
G1 F1800 X67.738 Y38.039 E35.89203
G0 F9000 X66.748 Y38.039
G1 F1800 X56.208 Y27.5 E36.75958
G0 F9000 X55.218 Y27.5
G1 F1800 X65.758 Y38.039 E37.62714
G0 F9000 X64.768 Y38.039
G1 F1800 X54.228 Y27.5 E38.49469
G0 F9000 X53.238 Y27.5
G1 F1800 X63.778 Y38.039 E39.36225
G0 F9000 X62.788 Y38.039
G1 F1800 X52.248 Y27.5 E40.2298
G0 F9000 X51.258 Y27.5
G1 F1800 X61.798 Y38.039 E41.09736
G0 F9000 X60.808 Y38.039
G1 F1800 X50.268 Y27.5 E41.96491
G0 F9000 X49.278 Y27.5
G1 F1800 X59.818 Y38.039 E42.83247
G0 F9000 X58.828 Y38.039
G1 F1800 X48.288 Y27.499 E43.70006
G0 F9000 X47.298 Y27.499
G1 F1800 X57.838 Y38.039 E44.56766
G0 F9000 X56.848 Y38.039
G1 F1800 X46.308 Y27.499 E45.43526
G0 F9000 X45.318 Y27.499
G1 F1800 X55.858 Y38.039 E46.30285
G0 F9000 X54.868 Y38.039
G1 F1800 X44.328 Y27.499 E47.17045
G0 F9000 X43.338 Y27.499
G1 F1800 X53.878 Y38.039 E48.03804
G0 F9000 X52.888 Y38.039
G1 F1800 X42.348 Y27.499 E48.90564
G0 F9000 X41.358 Y27.499
G1 F1800 X51.898 Y38.039 E49.77324
G0 F9000 X50.908 Y38.039
G1 F1800 X40.368 Y27.499 E50.64083
G0 F9000 X39.378 Y27.499
G1 F1800 X49.918 Y38.039 E51.50843
G0 F9000 X48.928 Y38.039
G1 F1800 X38.388 Y27.499 E52.37603
G0 F9000 X37.398 Y27.499
G1 F1800 X47.938 Y38.038 E53.24358
G0 F9000 X46.948 Y38.038
G1 F1800 X36.408 Y27.499 E54.11114
G0 F9000 X35.418 Y27.499
G1 F1800 X45.958 Y38.038 E54.97869
G0 F9000 X44.968 Y38.038
G1 F1800 X34.429 Y27.499 E55.84621
G0 F9000 X33.439 Y27.499
G1 F1800 X43.978 Y38.038 E56.71372
G0 F9000 X42.988 Y38.038
G1 F1800 X32.449 Y27.499 E57.58123
G0 F9000 X31.459 Y27.499
G1 F1800 X41.998 Y38.038 E58.44875
G0 F9000 X41.008 Y38.038
G1 F1800 X30.469 Y27.499 E59.31626
G0 F9000 X29.479 Y27.499
G1 F1800 X40.018 Y38.038 E60.18377
G0 F9000 X39.028 Y38.038
G1 F1800 X28.489 Y27.499 E61.05129
G0 F9000 X27.499 Y27.499
G1 F1800 X38.038 Y38.038 E61.9188
G0 F9000 X37.048 Y38.038
G1 F1800 X26.509 Y27.499 E62.78632
G0 F9000 X25.519 Y27.499
G1 F1800 X36.058 Y38.038 E63.65383
G0 F9000 X35.068 Y38.038
G1 F1800 X24.529 Y27.499 E64.52134
G0 F9000 X23.539 Y27.499
G1 F1800 X34.079 Y38.038 E65.3889
G0 F9000 X33.089 Y38.038
G1 F1800 X22.549 Y27.499 E66.25645
G0 F9000 X21.559 Y27.499
G1 F1800 X32.099 Y38.038 E67.12401
G0 F9000 X31.109 Y38.038
G1 F1800 X21.155 Y28.085 E67.94333
G0 F9000 X21.155 Y29.075
G1 F1800 X30.119 Y38.038 E68.68116
G0 F9000 X29.129 Y38.038
G1 F1800 X21.155 Y30.065 E69.33749
G0 F9000 X21.155 Y31.055
G1 F1800 X28.139 Y38.038 E69.91234
G0 F9000 X27.149 Y38.038
G1 F1800 X21.155 Y32.045 E70.40569
G0 F9000 X21.155 Y33.035
G1 F1800 X26.159 Y38.038 E70.81755
G0 F9000 X25.169 Y38.038
G1 F1800 X21.155 Y34.025 E71.14792
G0 F9000 X21.155 Y35.015
G1 F1800 X24.179 Y38.038 E71.3968
G0 F9000 X23.189 Y38.038
G1 F1800 X21.155 Y36.005 E71.56418
G0 F9000 X21.155 Y36.995
G1 F1800 X22.199 Y38.038 E71.65008
G1 F1500 E65.65008
;MESH:Cable-Cover.stl(25)
G0 F9000 X22.199 Y38.77
G0 X77.25 Y39.5
G0 X77.25 Y42.208
G0 X77.25 Y55.188
;TYPE:WALL-INNER
G1 F1500 E71.65008
G1 F1800 X77.25 Y48.938 E71.97748
G1 X77.25 Y42.688 E72.30489
G1 X19.75 Y42.688 E75.31701
G1 X19.75 Y55.188 E75.97182
G1 X75.708 Y55.188 E78.90316
G0 F1620 X77.25 Y55.188
G0 F9000 X77.95 Y55.888
;TYPE:WALL-OUTER
G1 F1800 X77.95 Y48.938 E79.28746
G1 X77.95 Y41.988 E79.67176
G1 X19.05 Y41.988 E82.92864
G1 X19.05 Y55.888 E83.69724
G1 X76.408 Y55.888 E86.86885
G0 F1620 X77.95 Y55.888
G0 F9000 X77.28 Y55.218
G0 X77 Y54.558
G0 X76.62 Y54.558
;TYPE:SKIN
G1 F1800 X76.62 Y48.938 E87.19596
G1 X76.62 Y43.318 E87.52307
G1 X20.38 Y43.318 E90.79654
G1 X20.38 Y54.558 E91.45076
G1 X75.078 Y54.558 E94.63447
G0 F1620 X76.62 Y54.558
G0 F9000 X77 Y54.558
G0 X77 Y44.59
G0 X76.269 Y44.59
G1 F1800 X75.345 Y43.667 E94.71049
G0 F9000 X74.355 Y43.667
G1 F1800 X76.269 Y45.58 E94.868
G0 F9000 X76.269 Y46.57
G1 F1800 X73.365 Y43.667 E95.107
G0 F9000 X72.375 Y43.667
G1 F1800 X76.269 Y47.56 E95.42749
G0 F9000 X76.269 Y48.55
G1 F1800 X71.385 Y43.667 E95.82948
G0 F9000 X70.396 Y43.667
G1 F1800 X76.269 Y49.54 E96.31291
G0 F9000 X76.269 Y50.53
G1 F1800 X69.406 Y43.667 E96.87783
G0 F9000 X68.416 Y43.667
G1 F1800 X76.269 Y51.52 E97.52425
G0 F9000 X76.269 Y52.51
G1 F1800 X67.426 Y43.667 E98.25216
G0 F9000 X66.436 Y43.667
G1 F1800 X76.269 Y53.5 E99.06156
G0 F9000 X75.986 Y54.207
G1 F1800 X65.446 Y43.667 E99.92916
G0 F9000 X64.456 Y43.667
G1 F1800 X74.996 Y54.207 E100.79675
G0 F9000 X74.006 Y54.207
G1 F1800 X63.466 Y43.667 E101.66435
G0 F9000 X62.476 Y43.667
G1 F1800 X73.016 Y54.207 E102.53194
G0 F9000 X72.026 Y54.207
G1 F1800 X61.486 Y43.667 E103.39954
G0 F9000 X60.496 Y43.667
G1 F1800 X71.036 Y54.207 E104.26714
G0 F9000 X70.046 Y54.207
G1 F1800 X59.506 Y43.667 E105.13473
G0 F9000 X58.516 Y43.667
G1 F1800 X69.056 Y54.207 E106.00233
G0 F9000 X68.066 Y54.207
G1 F1800 X57.526 Y43.667 E106.86993
G0 F9000 X56.536 Y43.667
G1 F1800 X67.076 Y54.207 E107.73752
G0 F9000 X66.086 Y54.207
G1 F1800 X55.546 Y43.667 E108.60512
G0 F9000 X54.556 Y43.667
G1 F1800 X65.096 Y54.207 E109.47271
G0 F9000 X64.107 Y54.207
G1 F1800 X53.566 Y43.667 E110.34035
G0 F9000 X52.576 Y43.667
G1 F1800 X63.117 Y54.207 E111.20799
G0 F9000 X62.127 Y54.207
G1 F1800 X51.586 Y43.667 E112.07563
G0 F9000 X50.597 Y43.667
G1 F1800 X61.137 Y54.207 E112.94322
G0 F9000 X60.147 Y54.207
G1 F1800 X49.607 Y43.667 E113.81082
G0 F9000 X48.617 Y43.667
G1 F1800 X59.157 Y54.207 E114.67842
G0 F9000 X58.167 Y54.207
G1 F1800 X47.627 Y43.667 E115.54601
G0 F9000 X46.637 Y43.667
G1 F1800 X57.177 Y54.207 E116.41361
G0 F9000 X56.187 Y54.207
G1 F1800 X45.647 Y43.667 E117.2812
G0 F9000 X44.657 Y43.667
G1 F1800 X55.197 Y54.207 E118.1488
G0 F9000 X54.207 Y54.207
G1 F1800 X43.667 Y43.667 E119.0164
G0 F9000 X42.677 Y43.667
G1 F1800 X53.217 Y54.207 E119.88399
G0 F9000 X52.227 Y54.207
G1 F1800 X41.687 Y43.667 E120.75159
G0 F9000 X40.697 Y43.667
G1 F1800 X51.237 Y54.207 E121.61919
G0 F9000 X50.247 Y54.207
G1 F1800 X39.707 Y43.667 E122.48678
G0 F9000 X38.717 Y43.667
G1 F1800 X49.257 Y54.207 E123.35438
G0 F9000 X48.267 Y54.207
G1 F1800 X37.727 Y43.667 E124.22197
G0 F9000 X36.737 Y43.667
G1 F1800 X47.277 Y54.207 E125.08957
G0 F9000 X46.287 Y54.207
G1 F1800 X35.747 Y43.667 E125.95717
G0 F9000 X34.757 Y43.667
G1 F1800 X45.297 Y54.207 E126.82476
G0 F9000 X44.308 Y54.207
G1 F1800 X33.767 Y43.667 E127.6924
G0 F9000 X32.777 Y43.667
G1 F1800 X43.318 Y54.207 E128.56004
G0 F9000 X42.328 Y54.207
G1 F1800 X31.787 Y43.667 E129.42767
G0 F9000 X30.798 Y43.667
G1 F1800 X41.338 Y54.207 E130.29527
G0 F9000 X40.348 Y54.207
G1 F1800 X29.808 Y43.667 E131.16287
G0 F9000 X28.818 Y43.667
G1 F1800 X39.358 Y54.207 E132.03046
G0 F9000 X38.368 Y54.207
G1 F1800 X27.828 Y43.667 E132.89806
G0 F9000 X26.838 Y43.667
G1 F1800 X37.378 Y54.207 E133.76566
G0 F9000 X36.388 Y54.207
G1 F1800 X25.848 Y43.667 E134.63325
G0 F9000 X24.858 Y43.667
G1 F1800 X35.398 Y54.207 E135.50085
G0 F9000 X34.408 Y54.207
G1 F1800 X23.868 Y43.667 E136.36844
G0 F9000 X22.878 Y43.667
G1 F1800 X33.418 Y54.207 E137.23604
G0 F9000 X32.428 Y54.207
G1 F1800 X21.888 Y43.667 E138.10364
G0 F9000 X20.898 Y43.667
G1 F1800 X31.438 Y54.207 E138.97123
G0 F9000 X30.448 Y54.207
G1 F1800 X20.73 Y44.489 E139.77117
G0 F9000 X20.73 Y45.478
G1 F1800 X29.458 Y54.207 E140.48965
G0 F9000 X28.468 Y54.207
G1 F1800 X20.73 Y46.468 E141.12664
G0 F9000 X20.73 Y47.458
G1 F1800 X27.478 Y54.207 E141.68214
G0 F9000 X26.488 Y54.207
G1 F1800 X20.73 Y48.448 E142.15615
G0 F9000 X20.73 Y49.438
G1 F1800 X25.498 Y54.207 E142.54867
G0 F9000 X24.509 Y54.207
G1 F1800 X20.73 Y50.428 E142.85974
G0 F9000 X20.73 Y51.418
G1 F1800 X23.519 Y54.207 E143.08931
G0 F9000 X22.529 Y54.207
G1 F1800 X20.73 Y52.408 E143.2374
G0 F9000 X20.73 Y53.398
G1 F1800 X21.539 Y54.207 E143.30399
G1 F1500 E137.30399
;MESH:Cable-Cover.stl(21)
G0 F9000 X21.539 Y54.938
G0 X77.25 Y55.668
G0 X77.25 Y59.652
G0 X77.25 Y72.632
;TYPE:WALL-INNER
G1 F1500 E143.30399
G1 F1800 X77.25 Y66.382 E143.63139
G1 X77.25 Y60.132 E143.9588
G1 X19.75 Y60.132 E146.97092
G1 X19.75 Y72.632 E147.62573
G1 X75.708 Y72.632 E150.55707
G0 F1620 X77.25 Y72.632
G0 F9000 X77.95 Y73.332
;TYPE:WALL-OUTER
G1 F1800 X77.95 Y66.382 E150.94137
G1 X77.95 Y59.432 E151.32567
G1 X19.05 Y59.432 E154.58254
G1 X19.05 Y73.332 E155.35114
G1 X76.408 Y73.332 E158.52275
G0 F1620 X77.95 Y73.332
G0 F9000 X77.28 Y72.662
G0 X77 Y72.002
G0 X76.62 Y72.002
;TYPE:SKIN
G1 F1800 X76.62 Y66.382 E158.84987
G1 X76.62 Y60.762 E159.17698
G1 X20.38 Y60.762 E162.45044
G1 X20.38 Y72.002 E163.10467
G1 X75.078 Y72.002 E166.28838
G0 F1620 X76.62 Y72.002
G0 F9000 X77 Y72.002
G0 X77 Y61.42
G0 X76.269 Y61.42
G1 F1800 X75.96 Y61.111 E166.31382
G0 F9000 X74.97 Y61.111
G1 F1800 X76.269 Y62.409 E166.4207
G0 F9000 X76.269 Y63.399
G1 F1800 X73.981 Y61.111 E166.60904
G0 F9000 X72.991 Y61.111
G1 F1800 X76.269 Y64.389 E166.87886
G0 F9000 X76.269 Y65.379
G1 F1800 X72.001 Y61.111 E167.23018
G0 F9000 X71.011 Y61.111
G1 F1800 X76.269 Y66.369 E167.66299
G0 F9000 X76.269 Y67.359
G1 F1800 X70.021 Y61.111 E168.1773
G0 F9000 X69.031 Y61.111
G1 F1800 X76.269 Y68.349 E168.77309
G0 F9000 X76.269 Y69.339
G1 F1800 X68.041 Y61.111 E169.45037
G0 F9000 X67.051 Y61.111
G1 F1800 X76.269 Y70.329 E170.20915
G0 F9000 X76.269 Y71.319
G1 F1800 X66.061 Y61.111 E171.04942
G0 F9000 X65.071 Y61.111
G1 F1800 X75.61 Y71.651 E171.91697
G0 F9000 X74.62 Y71.651
G1 F1800 X64.081 Y61.111 E172.78453
G0 F9000 X63.091 Y61.111
G1 F1800 X73.631 Y71.651 E173.65212
G0 F9000 X72.641 Y71.651
G1 F1800 X62.101 Y61.111 E174.51972
G0 F9000 X61.111 Y61.111
G1 F1800 X71.651 Y71.651 E175.38732
G0 F9000 X70.661 Y71.651
G1 F1800 X60.121 Y61.111 E176.25491
G0 F9000 X59.131 Y61.111
G1 F1800 X69.671 Y71.651 E177.12251
G0 F9000 X68.681 Y71.651
G1 F1800 X58.141 Y61.111 E177.99011
G0 F9000 X57.151 Y61.111
G1 F1800 X67.691 Y71.651 E178.8577
G0 F9000 X66.701 Y71.651
G1 F1800 X56.161 Y61.111 E179.7253
G0 F9000 X55.172 Y61.111
G1 F1800 X65.711 Y71.651 E180.59285
G0 F9000 X64.721 Y71.651
G1 F1800 X54.182 Y61.111 E181.46041
G0 F9000 X53.192 Y61.111
G1 F1800 X63.731 Y71.651 E182.32796
G0 F9000 X62.741 Y71.651
G1 F1800 X52.202 Y61.111 E183.19552
G0 F9000 X51.212 Y61.111
G1 F1800 X61.751 Y71.651 E184.06307
G0 F9000 X60.761 Y71.651
G1 F1800 X50.222 Y61.111 E184.93063
G0 F9000 X49.232 Y61.111
G1 F1800 X59.771 Y71.651 E185.79818
G0 F9000 X58.781 Y71.651
G1 F1800 X48.242 Y61.111 E186.66574
G0 F9000 X47.252 Y61.111
G1 F1800 X57.791 Y71.651 E187.53329
G0 F9000 X56.801 Y71.651
G1 F1800 X46.262 Y61.111 E188.40085
G0 F9000 X45.272 Y61.111
G1 F1800 X55.811 Y71.651 E189.2684
G0 F9000 X54.821 Y71.651
G1 F1800 X44.282 Y61.111 E190.13596
G0 F9000 X43.292 Y61.111
G1 F1800 X53.832 Y71.651 E191.00355
G0 F9000 X52.842 Y71.651
G1 F1800 X42.302 Y61.111 E191.87115
G0 F9000 X41.312 Y61.111
G1 F1800 X51.852 Y71.651 E192.73875
G0 F9000 X50.862 Y71.651
G1 F1800 X40.322 Y61.111 E193.60634
G0 F9000 X39.332 Y61.111
G1 F1800 X49.872 Y71.651 E194.47394
G0 F9000 X48.882 Y71.651
G1 F1800 X38.342 Y61.111 E195.34154
G0 F9000 X37.352 Y61.111
G1 F1800 X47.892 Y71.651 E196.20913
G0 F9000 X46.902 Y71.651
G1 F1800 X36.362 Y61.111 E197.07673
G0 F9000 X35.373 Y61.111
G1 F1800 X45.912 Y71.651 E197.94428
G0 F9000 X44.922 Y71.651
G1 F1800 X34.383 Y61.111 E198.81184
G0 F9000 X33.393 Y61.111
G1 F1800 X43.932 Y71.651 E199.67939
G0 F9000 X42.942 Y71.651
G1 F1800 X32.403 Y61.111 E200.54695
G0 F9000 X31.413 Y61.111
G1 F1800 X41.952 Y71.651 E201.4145
G0 F9000 X40.962 Y71.651
G1 F1800 X30.423 Y61.111 E202.28206
G0 F9000 X29.433 Y61.111
G1 F1800 X39.972 Y71.651 E203.14961
G0 F9000 X38.982 Y71.651
G1 F1800 X28.443 Y61.111 E204.01717
G0 F9000 X27.453 Y61.111
G1 F1800 X37.992 Y71.651 E204.88472
G0 F9000 X37.002 Y71.651
G1 F1800 X26.463 Y61.111 E205.75228
G0 F9000 X25.473 Y61.111
G1 F1800 X36.012 Y71.651 E206.61983
G0 F9000 X35.022 Y71.651
G1 F1800 X24.483 Y61.111 E207.48739
G0 F9000 X23.493 Y61.111
G1 F1800 X34.033 Y71.651 E208.35499
G0 F9000 X33.043 Y71.651
G1 F1800 X22.503 Y61.111 E209.22258
G0 F9000 X21.513 Y61.111
G1 F1800 X32.053 Y71.651 E210.09018
G0 F9000 X31.063 Y71.651
G1 F1800 X20.729 Y61.317 E210.94082
G0 F9000 X20.729 Y62.307
G1 F1800 X30.073 Y71.651 E211.70997
G0 F9000 X29.083 Y71.651
G1 F1800 X20.729 Y63.297 E212.39762
G0 F9000 X20.729 Y64.287
G1 F1800 X28.093 Y71.651 E213.00379
G0 F9000 X27.103 Y71.651
G1 F1800 X20.729 Y65.277 E213.52846
G0 F9000 X20.729 Y66.267
G1 F1800 X26.113 Y71.651 E213.97164
G0 F9000 X25.123 Y71.651
G1 F1800 X20.729 Y67.257 E214.33333
G0 F9000 X20.729 Y68.247
G1 F1800 X24.133 Y71.651 E214.61353
G0 F9000 X23.143 Y71.651
G1 F1800 X20.729 Y69.237 E214.81224
G0 F9000 X20.729 Y70.227
G1 F1800 X22.153 Y71.651 E214.92946
G0 F9000 X21.163 Y71.651
G1 F1800 X20.729 Y71.216 E214.96522
G1 F1500 E208.96522
;MESH:Cable-Cover.stl(15)
G0 F9000 X20 Y71.216
G0 X20.072 Y72.31
G0 X77.25 Y73.112
G0 X77.25 Y76.152
G0 X77.25 Y89.132
;TYPE:WALL-INNER
G1 F1500 E214.96522
G1 F1800 X77.25 Y82.882 E215.29263
G1 X77.25 Y76.632 E215.62003
G1 X19.75 Y76.632 E218.63215
G1 X19.75 Y89.132 E219.28696
G1 X75.708 Y89.132 E222.2183
G0 F1620 X77.25 Y89.132
G0 F9000 X77.95 Y89.832
;TYPE:WALL-OUTER
G1 F1800 X77.95 Y82.882 E222.6026
G1 X77.95 Y75.932 E222.9869
G1 X19.05 Y75.932 E226.24378
G1 X19.05 Y89.832 E227.01238
G1 X76.408 Y89.832 E230.18399
G0 F1620 X77.95 Y89.832
G0 F9000 X77.28 Y89.162
G0 X77 Y88.502
G0 X76.62 Y88.502
;TYPE:SKIN
G1 F1800 X76.62 Y82.882 E230.5111
G1 X76.62 Y77.262 E230.83821
