;FLAVOR:Marlin
;TIME:8032
;Filament used: 23.3415m
;Layer height: 0.4
;MINX:37.35
;MINY:26.113
;MINZ:0.2
;MAXX:182.65
;MAXY:193.887
;MAXZ:17
;Generated with Cura_SteamEngine 5.0.0
M140 S60
M105
M190 S60
M104 S210
M105
M109 S210
M82 ;absolute extrusion mode
M201 X500.00 Y500.00 Z100.00 E5000.00 ;Setup machine max acceleration
M203 X500.00 Y500.00 Z10.00 E50.00 ;Setup machine max feedrate
M204 P500.00 R1000.00 T500.00 ;Setup Print/Retract/Travel acceleration
M205 X8.00 Y8.00 Z0.40 E5.00 ;Setup Jerk
M220 S100 ;Reset Feedrate
M221 S100 ;Reset Flowrate

G28 ;Home
G29

G92 E0 ;Reset Extruder
G1 Z2.0 F3000 ;Move Z Axis up
G1 X10.1 Y20 Z0.28 F5000.0 ;Move to start position
G1 X10.1 Y200.0 Z0.28 F1500.0 E15 ;Draw the first line
G1 X10.4 Y200.0 Z0.28 F5000.0 ;Move to side a little
G1 X10.4 Y20 Z0.28 F1500.0 E30 ;Draw the second line
G92 E0 ;Reset Extruder
G1 Z2.0 F3000 ;Move Z Axis up
G92 E0
G92 E0
G1 F1500 E-6
;LAYER_COUNT:43
;LAYER:0
M107
M205 X7 Y7
;MESH:Base.stl
G0 F9000 X63.894 Y112.741 Z0.2
;TYPE:WALL-OUTER
G1 F1500 E0
G1 F1800 X63.407 Y112.797 E0.02711
G1 X62.918 Y112.766 E0.0542
G1 X62.446 Y112.652 E0.08105
G1 X62 Y112.459 E0.10792
G1 X61.593 Y112.191 E0.13487
G1 X61.238 Y111.851 E0.16205
G1 X60.949 Y111.462 E0.18884
G1 X60.732 Y111.027 E0.21572
G1 X60.593 Y110.56 E0.24267
G1 X60.537 Y110.077 E0.26955
G1 X60.567 Y109.585 E0.29681
G1 X60.681 Y109.113 E0.32366
G1 X60.874 Y108.668 E0.35048
G1 X61.142 Y108.261 E0.37742
G1 X61.478 Y107.907 E0.40441
G1 X61.871 Y107.616 E0.43145
G1 X62.338 Y107.386 E0.46024
G1 X62.816 Y107.251 E0.4877
G1 X63.298 Y107.203 E0.51449
G1 X63.751 Y107.235 E0.5396
G1 X64.221 Y107.348 E0.56633
G1 X64.665 Y107.541 E0.5931
G1 X65.072 Y107.808 E0.62001
G1 X65.429 Y108.149 E0.64731
G1 X65.716 Y108.535 E0.67391
G1 X65.935 Y108.974 E0.70103
G1 X66.074 Y109.44 E0.72792
G1 X66.13 Y109.923 E0.75481
G1 X66.099 Y110.416 E0.78212
G1 X65.988 Y110.89 E0.80904
G1 X65.792 Y111.335 E0.83593
G1 X65.525 Y111.739 E0.86271
G1 X65.244 Y112.035 E0.88528
G0 F1620 X65.189 Y112.093
G0 X64.795 Y112.385
G0 X64.359 Y112.602
G0 X63.894 Y112.741
G0 F9000 X64.086 Y113.414
;TYPE:WALL-INNER
G1 F1800 X63.479 Y113.493 E0.91734
G1 X62.866 Y113.464 E0.94949
G1 X62.275 Y113.331 E0.98122
G1 X61.716 Y113.099 E1.01293
G1 X61.201 Y112.771 E1.04491
G1 X60.748 Y112.351 E1.07727
G1 X60.383 Y111.874 E1.10874
G1 X60.102 Y111.332 E1.14072
G1 X59.92 Y110.753 E1.17251
G1 X59.841 Y110.149 E1.20442
G1 X59.869 Y109.535 E1.23662
G1 X60.002 Y108.942 E1.26846
G1 X60.234 Y108.383 E1.30016
G1 X60.562 Y107.869 E1.3321
G1 X60.976 Y107.419 E1.36413
G1 X61.461 Y107.049 E1.39609
G1 X62.036 Y106.755 E1.42992
G1 X62.634 Y106.575 E1.46263
G1 X63.236 Y106.506 E1.49438
G1 X63.808 Y106.537 E1.52438
G1 X64.392 Y106.669 E1.55575
G1 X64.951 Y106.902 E1.58747
G1 X65.462 Y107.226 E1.61917
G1 X65.919 Y107.649 E1.65179
G1 X66.282 Y108.123 E1.68306
G1 X66.565 Y108.67 E1.71533
G1 X66.747 Y109.246 E1.74697
G1 X66.826 Y109.851 E1.77893
G1 X66.797 Y110.468 E1.81129
G1 X66.668 Y111.056 E1.84282
G1 X66.429 Y111.625 E1.87515
G1 X66.105 Y112.131 E1.90663
G1 X65.691 Y112.581 E1.93866
G1 X65.465 Y112.753 E1.95354
G0 F1620 X65.205 Y112.952
G0 X64.665 Y113.232
G0 X64.086 Y113.414
G1 F1500 E-4.04646
G0 F9000 X65.193 Y113.344
G0 X41.808 Y153.85
G0 X110 Y192.941
G1 F1500 E1.95354
G0 F9000 X110 Y193.656
;TYPE:WALL-OUTER
G1 F1800 X182.45 Y151.828 E6.57938
G1 X182.45 Y101.906 E9.33982
G1 X182.45 Y68.172 E11.20514
G1 X110 Y26.344 E15.83098
G1 X37.551 Y68.172 E20.45677
G1 X37.551 Y151.828 E25.08253
G1 X108.665 Y192.885 E29.62308
G0 F1620 X110 Y193.656
G0 F9000 X110 Y192.848
;TYPE:WALL-INNER
G1 F1800 X181.75 Y151.424 E33.96311
G1 X181.75 Y101.906 E36.5571
G1 X181.75 Y68.576 E38.30308
G1 X110 Y27.152 E42.64312
G1 X38.251 Y68.576 E46.98311
G1 X38.251 Y151.424 E51.32308
G1 X108.665 Y192.077 E55.58232
G0 F1620 X110 Y192.848
G0 F9000 X110 Y192.119
;TYPE:SKIN
G1 F1800 X181.12 Y151.058 E60.36226
G1 X181.12 Y101.908 E63.22305
G1 X181.12 Y68.942 E65.14184
G1 X110.001 Y27.881 E69.92173
G1 X38.881 Y68.942 E74.70168
G1 X38.882 Y151.058 E79.48126
G1 X108.665 Y191.348 E84.17137
G0 F1620 X110 Y192.119
G1 F1500 E78.17137
G0 F9000 X109.808 Y192.448
G0 X41.018 Y153.416
G0 X62.841 Y113.794
G0 X63.95 Y113.694
G1 F1500 E84.17137
G0 F9000 X63.994 Y114.072
G1 F1800 X63.958 Y114.077 E84.17349
G1 X63.284 Y114.125 E84.21282
G1 X63.234 Y114.124 E84.21573
G1 X62.568 Y114.054 E84.2547
G1 X62.522 Y114.044 E84.25744
G1 X61.866 Y113.855 E84.29718
G1 X61.837 Y113.843 E84.29901
G1 X61.225 Y113.547 E84.33858
G1 X61.189 Y113.524 E84.34106
G1 X60.635 Y113.123 E84.38087
G1 X60.604 Y113.094 E84.38334
G1 X60.141 Y112.612 E84.42224
G1 X60.117 Y112.58 E84.42457
G1 X59.733 Y112.014 E84.46438
G1 X59.714 Y111.978 E84.46675
G1 X59.436 Y111.356 E84.50641
G1 X59.427 Y111.327 E84.50817
G1 X59.268 Y110.7 E84.54582
G1 X59.258 Y110.639 E84.54942
G1 X59.209 Y109.97 E84.58846
G1 X59.21 Y109.908 E84.59207
G1 X59.277 Y109.249 E84.63063
G1 X59.289 Y109.187 E84.6343
G1 X59.472 Y108.553 E84.67271
G1 X59.493 Y108.498 E84.67614
G1 X59.785 Y107.896 E84.71508
G1 X59.806 Y107.862 E84.71741
G1 X60.205 Y107.309 E84.7571
G1 X60.23 Y107.281 E84.75928
G1 X60.658 Y106.855 E84.79443
G1 X60.687 Y106.832 E84.79659
G1 X61.202 Y106.465 E84.8334
G1 X61.234 Y106.447 E84.83553
G1 X61.768 Y106.183 E84.87021
G1 X62.05 Y106.078 E84.88772
G1 X62.737 Y105.918 E84.92878
G1 X63.331 Y105.872 E84.96345
G1 X63.478 Y105.878 E84.97202
G1 X64.122 Y105.951 E85.00974
G1 X64.795 Y106.142 E85.05046
G1 X64.832 Y106.157 E85.05279
G1 X65.433 Y106.449 E85.09168
G1 X65.468 Y106.471 E85.09408
G1 X66.036 Y106.88 E85.13482
G1 X66.516 Y107.378 E85.17508
G1 X66.548 Y107.418 E85.17806
G1 X66.933 Y107.985 E85.21795
G1 X67.192 Y108.533 E85.25323
G1 X67.197 Y108.547 E85.2541
G1 X67.354 Y109.072 E85.28599
G1 X67.409 Y109.364 E85.30329
G1 X67.458 Y110.049 E85.34326
G1 X67.457 Y110.091 E85.34571
G1 X67.405 Y110.677 E85.37995
G1 X67.277 Y111.222 E85.41253
G1 X67.182 Y111.493 E85.42925
G1 X66.889 Y112.093 E85.46811
G1 X66.86 Y112.139 E85.47128
G1 X66.452 Y112.703 E85.5118
G1 X65.942 Y113.195 E85.55304
G1 X65.914 Y113.216 E85.55508
G1 X65.433 Y113.541 E85.58887
G0 F1620 X65.337 Y113.606
G0 X64.705 Y113.892
G0 X64.655 Y113.908
G0 X63.994 Y114.072
G1 F1500 E79.58887
G0 F9000 X63.95 Y113.694
G0 X62.841 Y113.794
G0 X37.93 Y113.794
G0 X38.501 Y150.105
G1 F1500 E85.58887
G0 F9000 X39.23 Y150.105
G1 F1800 X41.005 Y151.879 E85.73493
G0 F9000 X40.639 Y152.513
G0 X42.981 Y153.865
G0 X43.347 Y153.231
G1 F1800 X39.23 Y149.115 E86.07378
G0 F9000 X39.23 Y148.125
G1 F1800 X45.689 Y154.584 E86.60545
G0 F9000 X45.324 Y155.217
G0 X47.666 Y156.569
G0 X48.031 Y155.936
G1 F1800 X39.23 Y147.135 E87.3299
G0 F9000 X39.23 Y146.145
G1 F1800 X50.374 Y157.288 E88.24718
G0 F9000 X50.008 Y157.921
G0 X52.349 Y159.274
G0 X52.716 Y158.64
G1 F1800 X39.23 Y145.155 E89.35723
G0 F9000 X39.23 Y144.165
G1 F1800 X55.058 Y159.993 E90.66011
G0 F9000 X54.691 Y160.626
G0 X57.033 Y161.978
G0 X57.4 Y161.345
G1 F1800 X39.23 Y143.175 E92.15576
G0 F9000 X39.23 Y142.185
G1 F1800 X59.743 Y162.698 E93.84428
G0 F9000 X59.376 Y163.332
G0 X61.72 Y164.683
G0 X62.085 Y164.05
G1 F1800 X39.23 Y141.195 E95.72559
G0 F9000 X39.23 Y140.205
G1 F1800 X64.428 Y165.402 E97.79971
G0 F9000 X64.061 Y166.036
G0 X66.402 Y167.388
G0 X66.769 Y166.754
G1 F1800 X39.23 Y139.215 E100.06657
G0 F9000 X39.23 Y138.225
G1 F1800 X69.112 Y168.107 E102.5263
G0 F9000 X68.745 Y168.74
G0 X71.088 Y170.092
G0 X71.454 Y169.459
G1 F1800 X39.23 Y137.235 E105.1788
G0 F9000 X39.23 Y136.246
G1 F1800 X73.797 Y170.812 E108.02413
G0 F9000 X73.432 Y171.446
G0 X75.772 Y172.797
G0 X76.139 Y172.164
G1 F1800 X39.23 Y135.256 E111.06224
G0 F9000 X39.23 Y134.266
G1 F1800 X78.481 Y173.516 E114.29313
G0 F9000 X78.114 Y174.149
G0 X80.458 Y175.502
G0 X80.824 Y174.869
G1 F1800 X39.23 Y133.276 E117.71689
G0 F9000 X39.23 Y132.286
G1 F1800 X83.166 Y176.221 E121.33342
G0 F9000 X82.799 Y176.854
G0 X85.143 Y178.207
G0 X85.509 Y177.574
G1 F1800 X39.23 Y131.296 E125.14282
G0 F9000 X39.23 Y130.306
G1 F1800 X87.85 Y178.926 E129.14496
G0 F9000 X87.484 Y179.559
G0 X89.826 Y180.911
G0 X90.193 Y180.278
G1 F1800 X39.23 Y129.316 E133.33992
G0 F9000 X39.23 Y128.326
G1 F1800 X92.535 Y181.63 E137.72766
G0 F9000 X92.168 Y182.263
G0 X94.511 Y183.616
G0 X94.878 Y182.983
G1 F1800 X39.23 Y127.336 E142.30826
G0 F9000 X39.23 Y126.346
G1 F1800 X97.22 Y184.335 E147.08164
G0 F9000 X96.853 Y184.968
G0 X99.196 Y186.321
G0 X99.562 Y185.688
G1 F1800 X39.23 Y125.356 E152.04785
G0 F9000 X39.23 Y124.366
G1 F1800 X101.904 Y187.04 E157.20684
G0 F9000 X101.538 Y187.673
G0 X103.881 Y189.026
G0 X104.247 Y188.393
G1 F1800 X39.23 Y123.376 E162.55869
G0 F9000 X39.23 Y122.386
G1 F1800 X106.589 Y189.745 E168.10332
G0 F9000 X106.223 Y190.378
G0 X108.564 Y191.73
G0 X108.931 Y191.097
G1 F1800 X39.23 Y121.396 E173.84073
G0 F9000 X39.23 Y120.406
G1 F1800 X110.341 Y191.517 E179.69421
G0 F9000 X110.968 Y191.154
G1 F1800 X39.23 Y119.416 E185.5993
G0 F9000 X39.23 Y118.426
G1 F1800 X111.596 Y190.792 E191.55608
G0 F9000 X112.223 Y190.429
G1 F1800 X39.23 Y117.437 E197.56443
G0 F9000 X39.23 Y116.447
G1 F1800 X112.851 Y190.067 E203.62447
G0 F9000 X113.478 Y189.704
G1 F1800 X39.23 Y115.457 E209.73613
G0 F9000 X39.23 Y114.467
G1 F1800 X114.106 Y189.342 E215.89948
G0 F9000 X114.734 Y188.98
G1 F1800 X39.23 Y113.477 E222.11452
G0 F9000 X39.23 Y112.487
G1 F1800 X115.361 Y188.617 E228.38118
G0 F9000 X115.989 Y188.255
G1 F1800 X39.23 Y111.497 E234.69952
G0 F9000 X39.23 Y110.507
G1 F1800 X116.616 Y187.893 E241.06952
G0 F9000 X117.244 Y187.531
G1 F1800 X39.23 Y109.517 E247.49122
G0 F9000 X39.23 Y108.527
G1 F1800 X117.871 Y187.168 E253.96452
G0 F9000 X118.499 Y186.806
G1 F1800 X39.23 Y107.537 E260.48952
G0 F9000 X39.23 Y106.547
G1 F1800 X119.126 Y186.443 E267.06613
G0 F9000 X119.754 Y186.081
G1 F1800 X39.23 Y105.557 E273.69444
G0 F9000 X39.23 Y104.567
G1 F1800 X120.382 Y185.719 E280.37443
G0 F9000 X121.01 Y185.356
G1 F1800 X39.23 Y103.577 E287.10608
G0 F9000 X39.23 Y102.587
G1 F1800 X121.637 Y184.994 E293.88938
G0 F9000 X122.265 Y184.631
G1 F1800 X39.23 Y101.597 E300.72434
G0 F9000 X39.23 Y100.607
G1 F1800 X122.893 Y184.269 E307.61099
G0 F9000 X123.52 Y183.907
G1 F1800 X39.23 Y99.617 E314.54929
G0 F9000 X39.23 Y98.627
G1 F1800 X124.148 Y183.545 E321.53928
G0 F9000 X124.776 Y183.183
G1 F1800 X39.23 Y97.638 E328.58093
G0 F9000 X39.23 Y96.648
G1 F1800 X125.403 Y182.82 E335.67419
G0 F9000 X126.031 Y182.458
G1 F1800 X39.23 Y95.658 E342.81914
G0 F9000 X39.23 Y94.668
G1 F1800 X126.658 Y182.095 E350.0157
G0 F9000 X127.286 Y181.733
G1 F1800 X39.23 Y93.678 E357.26396
G0 F9000 X39.23 Y92.688
G1 F1800 X127.913 Y181.37 E364.56382
G0 F9000 X128.541 Y181.008
G1 F1800 X61.693 Y114.16 E370.06639
G0 F9000 X62.003 Y113.501
G0 X63.021 Y113.728
G0 X62.967 Y114.445
G1 F1800 X129.169 Y180.646 E375.51574
G0 F9000 X129.796 Y180.283
G1 F1800 X63.94 Y114.428 E380.93662
G0 F9000 X64.746 Y114.244
G1 F1800 X130.424 Y179.921 E386.34284
G0 F9000 X131.051 Y179.559
G1 F1800 X65.437 Y113.945 E391.74383
G0 F9000 X66.035 Y113.552
G1 F1800 X131.679 Y179.197 E397.14733
G0 F9000 X132.306 Y178.834
G1 F1800 X66.557 Y113.085 E402.55944
G0 F9000 X67 Y112.538
G1 F1800 X132.934 Y178.472 E407.98677
G0 F9000 X133.561 Y178.109
G1 F1800 X67.363 Y111.911 E413.43583
G0 F9000 X67.64 Y111.198
G1 F1800 X134.189 Y177.747 E418.91379
G0 F9000 X134.817 Y177.385
G1 F1800 X67.785 Y110.353 E424.4315
G0 F9000 X67.061 Y110.299
G0 X67.031 Y109.402
G0 X67.757 Y109.334
G1 F1800 X135.444 Y177.022 E430.00318
G0 F9000 X136.072 Y176.66
G1 F1800 X67.25 Y107.838 E435.66823
G0 F9000 X66.596 Y108.157
G0 X65.17 Y106.732
G0 X65.509 Y106.097
G1 F1800 X39.23 Y79.818 E437.83138
G0 F9000 X39.23 Y80.808
G1 F1800 X64.008 Y105.586 E439.87097
G0 F9000 X63.9 Y106.296
G0 X63.044 Y106.272
G0 X62.98 Y105.548
G1 F1800 X39.23 Y81.798 E441.82595
G0 F9000 X39.23 Y82.788
G1 F1800 X62.139 Y105.697 E443.71169
G0 F9000 X61.417 Y105.965
G1 F1800 X39.23 Y83.778 E445.53801
G0 F9000 X39.23 Y84.768
G1 F1800 X60.791 Y106.329 E447.31279
G0 F9000 X60.244 Y106.772
G1 F1800 X39.23 Y85.758 E449.04255
G0 F9000 X39.23 Y86.748
G1 F1800 X59.782 Y107.299 E450.73424
G0 F9000 X59.395 Y107.903
G1 F1800 X39.23 Y87.738 E452.39412
G0 F9000 X39.23 Y88.728
G1 F1800 X59.097 Y108.594 E454.02942
G0 F9000 X58.911 Y109.399
G1 F1800 X39.23 Y89.718 E455.64945
G0 F9000 X39.23 Y90.708
G1 F1800 X58.889 Y110.367 E457.26768
G0 F9000 X59.605 Y110.293
G0 X59.847 Y111.375
G0 X59.189 Y111.657
G1 F1800 X39.23 Y91.698 E458.91059
G0 F9000 X38.5 Y91.698
G0 X38.501 Y78.828
G0 X39.23 Y78.828
G1 F1800 X136.7 Y176.297 E466.93376
G0 F9000 X137.327 Y175.935
G1 F1800 X39.23 Y77.839 E475.00854
G0 F9000 X39.23 Y76.849
G1 F1800 X137.955 Y175.573 E483.13501
G0 F9000 X138.583 Y175.211
G1 F1800 X39.23 Y75.859 E491.31317
G0 F9000 X39.23 Y74.869
G1 F1800 X139.21 Y174.849 E499.54299
G0 F9000 X139.838 Y174.486
G1 F1800 X39.23 Y73.879 E507.82446
G0 F9000 X39.23 Y72.889
G1 F1800 X140.466 Y174.124 E516.15762
G0 F9000 X141.093 Y173.761
G1 F1800 X39.23 Y71.899 E524.5424
G0 F9000 X39.23 Y70.909
G1 F1800 X141.721 Y173.399 E532.97887
G0 F9000 X142.348 Y173.036
G1 F1800 X39.23 Y69.919 E541.46695
G0 F9000 X39.366 Y69.065
G1 F1800 X142.976 Y172.674 E549.99552
G0 F9000 X143.603 Y172.312
G1 F1800 X39.994 Y68.703 E558.52406
G0 F9000 X40.621 Y68.34
G1 F1800 X144.231 Y171.949 E567.05264
G0 F9000 X144.859 Y171.587
G1 F1800 X41.249 Y67.978 E575.58122
G0 F9000 X41.876 Y67.615
G1 F1800 X145.486 Y171.225 E584.10984
G0 F9000 X146.114 Y170.863
G1 F1800 X42.504 Y67.253 E592.63846
G0 F9000 X43.132 Y66.89
G1 F1800 X146.741 Y170.5 E601.16703
G0 F9000 X147.369 Y170.138
G1 F1800 X43.76 Y66.528 E609.69561
G0 F9000 X44.387 Y66.166
G1 F1800 X147.996 Y169.775 E618.22415
G0 F9000 X148.624 Y169.413
G1 F1800 X45.015 Y65.804 E626.75269
G0 F9000 X45.643 Y65.442
G1 F1800 X149.252 Y169.051 E635.28122
G0 F9000 X149.879 Y168.688
G1 F1800 X46.27 Y65.079 E643.80976
G0 F9000 X46.898 Y64.717
G1 F1800 X150.507 Y168.326 E652.3383
G0 F9000 X151.134 Y167.964
G1 F1800 X47.525 Y64.354 E660.86688
G0 F9000 X48.153 Y63.992
G1 F1800 X151.762 Y167.601 E669.39541
G0 F9000 X152.389 Y167.239
G1 F1800 X48.78 Y63.629 E677.92399
G0 F9000 X49.408 Y63.267
G1 F1800 X153.017 Y166.877 E686.45257
G0 F9000 X153.645 Y166.515
G1 F1800 X50.036 Y62.905 E694.98115
G0 F9000 X50.663 Y62.542
G1 F1800 X154.273 Y166.152 E703.50977
G0 F9000 X154.9 Y165.79
G1 F1800 X51.291 Y62.18 E712.03834
G0 F9000 X51.918 Y61.818
G1 F1800 X155.528 Y165.427 E720.56692
G0 F9000 X156.156 Y165.065
G1 F1800 X52.546 Y61.456 E729.0955
G0 F9000 X53.173 Y61.093
G1 F1800 X156.783 Y164.702 E737.62408
G0 F9000 X157.411 Y164.34
G1 F1800 X53.801 Y60.731 E746.15266
G0 F9000 X54.429 Y60.369
G1 F1800 X158.038 Y163.978 E754.68119
G0 F9000 X158.666 Y163.616
G1 F1800 X55.056 Y60.006 E763.20981
G0 F9000 X55.684 Y59.644
G1 F1800 X159.294 Y163.253 E771.73839
G0 F9000 X159.921 Y162.891
G1 F1800 X56.311 Y59.281 E780.26701
G0 F9000 X56.939 Y58.919
G1 F1800 X160.549 Y162.529 E788.79563
G0 F9000 X161.176 Y162.166
G1 F1800 X57.566 Y58.556 E797.32425
G0 F9000 X58.194 Y58.194
G1 F1800 X161.804 Y161.804 E805.85287
G0 F9000 X162.431 Y161.441
G1 F1800 X58.822 Y57.832 E814.38141
G0 F9000 X59.45 Y57.47
G1 F1800 X163.059 Y161.079 E822.90994
G0 F9000 X163.687 Y160.717
G1 F1800 X60.077 Y57.108 E831.43852
G0 F9000 X60.705 Y56.745
G1 F1800 X164.314 Y160.354 E839.96706
G0 F9000 X164.942 Y159.992
G1 F1800 X61.333 Y56.383 E848.49559
G0 F9000 X61.96 Y56.02
G1 F1800 X165.569 Y159.63 E857.02417
G0 F9000 X166.197 Y159.268
G1 F1800 X62.588 Y55.658 E865.55275
G0 F9000 X63.215 Y55.295
G1 F1800 X166.824 Y158.905 E874.08133
G0 F9000 X167.452 Y158.543
G1 F1800 X63.843 Y54.933 E882.60991
G0 F9000 X64.471 Y54.571
G1 F1800 X168.079 Y158.18 E891.1384
G0 F9000 X168.707 Y157.818
G1 F1800 X65.098 Y54.208 E899.66698
G0 F9000 X65.726 Y53.846
G1 F1800 X169.335 Y157.456 E908.19556
G0 F9000 X169.963 Y157.093
G1 F1800 X66.353 Y53.484 E916.72414
G0 F9000 X66.981 Y53.122
G1 F1800 X170.59 Y156.731 E925.25267
G0 F9000 X171.218 Y156.368
G1 F1800 X67.608 Y52.759 E933.78125
G0 F9000 X68.236 Y52.397
G1 F1800 X171.846 Y156.006 E942.30983
G0 F9000 X172.473 Y155.644
