;FLAVOR:Marlin
;TIME:20100
;Filament used: 43.4285m
;Layer height: 0.4
;MINX:34.35
;MINY:22.649
;MINZ:0.2
;MAXX:185.65
;MAXY:197.352
;MAXZ:100.2
;Generated with Cura_SteamEngine 5.0.0
M140 S60
M105
M190 S60
M104 S210
M105
M109 S210
M82 ;absolute extrusion mode
M201 X500.00 Y500.00 Z100.00 E5000.00 ;Setup machine max acceleration
M203 X500.00 Y500.00 Z10.00 E50.00 ;Setup machine max feedrate
M204 P500.00 R1000.00 T500.00 ;Setup Print/Retract/Travel acceleration
M205 X8.00 Y8.00 Z0.40 E5.00 ;Setup Jerk
M220 S100 ;Reset Feedrate
M221 S100 ;Reset Flowrate

G28 ;Home
G29

G92 E0 ;Reset Extruder
G1 Z2.0 F3000 ;Move Z Axis up
G1 X10.1 Y20 Z0.28 F5000.0 ;Move to start position
G1 X10.1 Y200.0 Z0.28 F1500.0 E15 ;Draw the first line
G1 X10.4 Y200.0 Z0.28 F5000.0 ;Move to side a little
G1 X10.4 Y20 Z0.28 F1500.0 E30 ;Draw the second line
G92 E0 ;Reset Extruder
G1 Z2.0 F3000 ;Move Z Axis up
G92 E0
G92 E0
G1 F1500 E-6
;LAYER_COUNT:251
;LAYER:0
M107
M205 X7 Y7
;MESH:Shelf.stl
G0 F9000 X109.723 Y191.304 Z0.2
;TYPE:WALL-OUTER
G1 F1500 E0
G1 F1800 X39.728 Y150.893 E4.4691
G1 X39.533 Y150.705 E4.48408
G1 X39.45 Y150.415 E4.50076
G1 X39.45 Y69.589 E8.97003
G1 X39.516 Y69.327 E8.98497
G1 X39.555 Y69.273 E8.98865
G1 X39.725 Y69.108 E9.00175
G1 X109.722 Y28.695 E13.47101
G1 X109.979 Y28.622 E13.48578
G1 X110.277 Y28.696 E13.50276
G1 X180.272 Y69.108 E17.97189
G1 X180.467 Y69.295 E17.98683
G1 X180.55 Y69.586 E18.00356
G1 X180.55 Y150.412 E22.47283
G1 X180.484 Y150.674 E22.48777
G1 X180.276 Y150.893 E22.50447
G1 X111.118 Y190.821 E26.92014
G0 F1620 X110.278 Y191.305
G0 X110.021 Y191.377
G0 X109.723 Y191.304
G1 F1500 E20.92014
G0 F9000 X110 Y197.12
G1 F1500 E26.92014
G1 F1800 X185.45 Y153.56 E31.73753
G1 X185.45 Y67.978 E36.46978
G1 X185.45 Y66.44 E36.55483
G1 X110 Y22.88 E41.37222
G1 X36.853 Y65.11 E46.04255
G1 X34.55 Y66.44 E46.1896
G1 X34.551 Y153.56 E51.0069
G1 X108.665 Y196.349 E55.739
G0 F1620 X110 Y197.12
G0 F9000 X109.999 Y196.391
;TYPE:SKIN
G1 F1800 X184.82 Y153.195 E60.76763
G1 X184.82 Y67.985 E65.7273
G1 X184.82 Y66.806 E65.79592
G1 X110 Y23.609 E70.82454
G1 X35.181 Y66.806 E75.8531
G1 X35.18 Y150.792 E80.74152
G1 X35.182 Y153.194 E80.88133
G1 X108.664 Y195.62 E85.82006
G0 F1620 X109.999 Y196.391
G1 F1500 E79.82006
G0 F9000 X109.406 Y191.85
G1 F1500 E85.82006
G1 F1800 X39.413 Y151.439 E90.52428
G1 X39.209 Y151.285 E90.53916
G1 X38.946 Y150.918 E90.56544
G1 X38.828 Y150.491 E90.59122
G1 X38.825 Y150.476 E90.59211
G1 X38.82 Y150.415 E90.59568
G1 X38.82 Y69.596 E95.29977
G1 X38.853 Y69.328 E95.31548
G1 X39.033 Y68.929 E95.34096
G1 X39.347 Y68.607 E95.36714
G1 X39.411 Y68.56 E95.37176
G1 X109.404 Y28.15 E100.07595
G1 X109.634 Y28.055 E100.09043
G1 X109.912 Y27.999 E100.10694
G1 X110.219 Y28.023 E100.12486
G1 X110.539 Y28.124 E100.14439
G1 X110.593 Y28.149 E100.14786
G1 X180.587 Y68.562 E104.85218
G1 X180.791 Y68.716 E104.86706
G1 X181.054 Y69.082 E104.8933
G1 X181.172 Y69.513 E104.9193
G1 X181.18 Y69.589 E104.92375
G1 X181.18 Y150.406 E109.62773
G1 X181.15 Y150.667 E109.64302
G1 X180.967 Y151.072 E109.66888
G1 X180.652 Y151.394 E109.6951
G1 X180.589 Y151.441 E109.69968
G1 X110.865 Y191.696 E114.3858
G0 F1620 X110.597 Y191.85
G0 X110.366 Y191.948
G0 X109.904 Y191.992
G0 X109.475 Y191.88
G0 X109.406 Y191.85
G1 F1500 E108.3858
G0 F9000 X35.531 Y152.345
G1 F1500 E114.3858
G1 F1800 X37.057 Y153.871 E114.51141
G0 F9000 X39.399 Y155.224
G1 F1800 X35.531 Y151.355 E114.82984
G0 F9000 X35.531 Y150.365
G1 F1800 X41.742 Y156.576 E115.3411
G0 F9000 X44.084 Y157.928
G1 F1800 X35.531 Y149.375 E116.04514
G0 F9000 X35.531 Y148.385
G1 F1800 X46.427 Y159.281 E116.94204
G0 F9000 X48.769 Y160.633
G1 F1800 X40.75 Y152.614 E117.60212
G0 F9000 X43.093 Y153.967
G1 F1800 X51.111 Y161.986 E118.26216
G0 F9000 X53.454 Y163.338
G1 F1800 X45.435 Y155.319 E118.92224
G0 F9000 X47.777 Y156.672
G1 F1800 X55.796 Y164.69 E119.58228
G0 F9000 X58.139 Y166.043
G1 F1800 X50.119 Y158.024 E120.2424
G0 F9000 X52.462 Y159.376
G1 F1800 X60.48 Y167.395 E120.90244
G0 F9000 X62.823 Y168.748
G1 F1800 X54.804 Y160.728 E121.56256
G0 F9000 X57.146 Y162.08
G1 F1800 X65.166 Y170.1 E122.22273
G0 F9000 X67.508 Y171.452
G1 F1800 X59.488 Y163.433 E122.88285
G0 F9000 X61.83 Y164.785
G1 F1800 X69.85 Y172.805 E123.54301
G0 F9000 X72.192 Y174.157
G1 F1800 X64.173 Y166.138 E124.20309
G0 F9000 X66.515 Y167.49
G1 F1800 X74.535 Y175.51 E124.86326
G0 F9000 X76.877 Y176.862
G1 F1800 X68.858 Y168.842 E125.52338
G0 F9000 X71.199 Y170.194
G1 F1800 X79.22 Y178.214 E126.18358
G0 F9000 X81.562 Y179.567
G1 F1800 X73.541 Y171.546 E126.84383
G0 F9000 X75.884 Y172.899
G1 F1800 X83.904 Y180.919 E127.50399
G0 F9000 X86.247 Y182.272
G1 F1800 X78.226 Y174.251 E128.16424
G0 F9000 X80.569 Y175.604
G1 F1800 X88.589 Y183.624 E128.8244
G0 F9000 X90.931 Y184.977
G1 F1800 X82.911 Y176.956 E129.48461
G0 F9000 X85.253 Y178.308
G1 F1800 X93.274 Y186.329 E130.14485
G0 F9000 X95.616 Y187.681
G1 F1800 X87.595 Y179.66 E130.8051
G0 F9000 X89.938 Y181.013
G1 F1800 X97.959 Y189.034 E131.46534
G0 F9000 X100.3 Y190.386
G1 F1800 X92.28 Y182.365 E132.12555
G0 F9000 X94.622 Y183.717
G1 F1800 X102.643 Y191.739 E132.78583
G0 F9000 X104.986 Y193.091
G1 F1800 X96.964 Y185.07 E133.44612
G0 F9000 X99.306 Y186.422
G1 F1800 X107.328 Y194.443 E134.10641
G0 F9000 X109.67 Y195.796
G1 F1800 X101.649 Y187.775 E134.76665
G0 F9000 X103.991 Y189.127
G1 F1800 X110.538 Y195.674 E135.30557
G0 F9000 X111.165 Y195.311
G1 F1800 X106.334 Y190.479 E135.70327
G0 F9000 X108.675 Y191.831
G1 F1800 X111.793 Y194.949 E135.95993
G0 F9000 X112.421 Y194.587
G1 F1800 X110.162 Y192.328 E136.14588
G0 F9000 X110.901 Y192.077
G1 F1800 X113.048 Y194.224 E136.32261
G0 F9000 X113.676 Y193.862
G1 F1800 X111.529 Y191.715 E136.49934
G0 F9000 X112.157 Y191.352
G1 F1800 X114.303 Y193.499 E136.67602
G0 F9000 X114.931 Y193.137
G1 F1800 X112.784 Y190.99 E136.85275
G0 F9000 X113.412 Y190.628
G1 F1800 X115.559 Y192.775 E137.02948
G0 F9000 X116.186 Y192.412
G1 F1800 X114.04 Y190.266 E137.20613
G0 F9000 X114.667 Y189.904
G1 F1800 X116.814 Y192.05 E137.38282
G0 F9000 X117.441 Y191.688
G1 F1800 X115.295 Y189.541 E137.55951
G0 F9000 X115.923 Y189.179
G1 F1800 X118.069 Y191.326 E137.7362
G0 F9000 X118.697 Y190.963
G1 F1800 X116.55 Y188.816 E137.91292
G0 F9000 X117.178 Y188.454
G1 F1800 X119.324 Y190.601 E138.08961
G0 F9000 X119.952 Y190.239
G1 F1800 X117.806 Y188.092 E138.2663
G0 F9000 X118.433 Y187.729
G1 F1800 X120.58 Y189.876 E138.44303
G0 F9000 X121.208 Y189.514
G1 F1800 X119.061 Y187.367 E138.61976
G0 F9000 X119.688 Y187.004
G1 F1800 X121.835 Y189.151 E138.79649
G0 F9000 X122.463 Y188.789
G1 F1800 X120.316 Y186.642 E138.97322
G0 F9000 X120.943 Y186.28
G1 F1800 X123.091 Y188.427 E139.14999
G0 F9000 X123.718 Y188.064
G1 F1800 X121.571 Y185.918 E139.32668
G0 F9000 X122.199 Y185.556
G1 F1800 X124.346 Y187.702 E139.50337
G0 F9000 X124.973 Y187.34
G1 F1800 X122.826 Y185.193 E139.6801
G0 F9000 X123.454 Y184.831
G1 F1800 X125.601 Y186.978 E139.85683
G0 F9000 X126.228 Y186.615
G1 F1800 X124.081 Y184.468 E140.03356
G0 F9000 X124.709 Y184.106
G1 F1800 X126.856 Y186.253 E140.21029
G0 F9000 X127.484 Y185.891
G1 F1800 X125.336 Y183.743 E140.3871
G0 F9000 X125.964 Y183.381
G1 F1800 X128.111 Y185.528 E140.56383
G0 F9000 X128.739 Y185.166
G1 F1800 X126.592 Y183.019 E140.74056
G0 F9000 X127.219 Y182.656
G1 F1800 X129.366 Y184.803 E140.91729
G0 F9000 X129.994 Y184.441
G1 F1800 X127.847 Y182.294 E141.09401
G0 F9000 X128.474 Y181.932
G1 F1800 X130.622 Y184.079 E141.27079
G0 F9000 X131.249 Y183.716
G1 F1800 X129.102 Y181.57 E141.44747
G0 F9000 X129.73 Y181.207
G1 F1800 X131.877 Y183.354 E141.6242
G0 F9000 X132.504 Y182.992
G1 F1800 X130.357 Y180.845 E141.80093
G0 F9000 X130.985 Y180.483
G1 F1800 X133.132 Y182.63 E141.97766
G0 F9000 X133.759 Y182.267
G1 F1800 X131.613 Y180.12 E142.15435
G0 F9000 X132.24 Y179.758
G1 F1800 X134.387 Y181.905 E142.33108
G0 F9000 X135.015 Y181.543
G1 F1800 X132.868 Y179.395 E142.50785
G0 F9000 X133.496 Y179.033
G1 F1800 X135.642 Y181.18 E142.68454
G0 F9000 X136.27 Y180.818
G1 F1800 X134.123 Y178.671 E142.86127
G0 F9000 X134.751 Y178.308
G1 F1800 X136.897 Y180.455 E143.03796
G0 F9000 X137.525 Y180.093
G1 F1800 X135.379 Y177.946 E143.21465
G0 F9000 X136.006 Y177.584
G1 F1800 X138.153 Y179.731 E143.39138
G0 F9000 X138.781 Y179.368
G1 F1800 X136.634 Y177.222 E143.56806
G0 F9000 X137.261 Y176.859
G1 F1800 X139.408 Y179.006 E143.74479
G0 F9000 X140.036 Y178.644
G1 F1800 X137.889 Y176.497 E143.92152
G0 F9000 X138.516 Y176.134
G1 F1800 X140.664 Y178.282 E144.09833
G0 F9000 X141.291 Y177.919
G1 F1800 X139.144 Y175.772 E144.27506
G0 F9000 X139.772 Y175.41
G1 F1800 X141.919 Y177.557 E144.45179
G0 F9000 X142.547 Y177.195
G1 F1800 X140.399 Y175.047 E144.62861
G0 F9000 X141.027 Y174.685
G1 F1800 X143.174 Y176.832 E144.80533
G0 F9000 X143.802 Y176.47
G1 F1800 X141.654 Y174.323 E144.98211
G0 F9000 X142.282 Y173.96
G1 F1800 X144.429 Y176.107 E145.15884
G0 F9000 X145.057 Y175.745
G1 F1800 X142.909 Y173.598 E145.33561
G0 F9000 X143.537 Y173.236
G1 F1800 X145.685 Y175.383 E145.51238
G0 F9000 X146.312 Y175.02
G1 F1800 X144.165 Y172.874 E145.68906
G0 F9000 X144.792 Y172.511
G1 F1800 X146.94 Y174.658 E145.86584
G0 F9000 X147.567 Y174.296
G1 F1800 X145.42 Y172.149 E146.04257
G0 F9000 X146.047 Y171.786
G1 F1800 X148.195 Y173.934 E146.21938
G0 F9000 X148.822 Y173.571
G1 F1800 X146.675 Y171.424 E146.39611
G0 F9000 X147.303 Y171.061
G1 F1800 X149.45 Y173.209 E146.57288
G0 F9000 X150.078 Y172.847
G1 F1800 X147.93 Y170.699 E146.74969
G0 F9000 X148.558 Y170.337
G1 F1800 X150.705 Y172.484 E146.92642
G0 F9000 X151.333 Y172.122
G1 F1800 X149.186 Y169.975 E147.10315
G0 F9000 X149.814 Y169.612
G1 F1800 X151.96 Y171.759 E147.27984
G0 F9000 X152.588 Y171.397
G1 F1800 X150.441 Y169.25 E147.45657
G0 F9000 X151.069 Y168.888
G1 F1800 X153.216 Y171.035 E147.6333
G0 F9000 X153.843 Y170.672
G1 F1800 X151.696 Y168.525 E147.81002
G0 F9000 X152.324 Y168.163
G1 F1800 X154.471 Y170.31 E147.98675
G0 F9000 X155.098 Y169.948
G1 F1800 X152.951 Y167.8 E148.16353
G0 F9000 X153.579 Y167.438
G1 F1800 X155.726 Y169.586 E148.3403
G0 F9000 X156.354 Y169.224
G1 F1800 X154.207 Y167.076 E148.51707
G0 F9000 X154.834 Y166.713
G1 F1800 X156.981 Y168.861 E148.69384
G0 F9000 X157.609 Y168.499
G1 F1800 X155.462 Y166.351 E148.87061
G0 F9000 X156.089 Y165.989
G1 F1800 X158.237 Y168.136 E149.04738
G0 F9000 X158.864 Y167.774
G1 F1800 X156.717 Y165.627 E149.22411
G0 F9000 X157.344 Y165.264
G1 F1800 X159.492 Y167.411 E149.40088
G0 F9000 X160.12 Y167.049
G1 F1800 X157.972 Y164.902 E149.57765
G0 F9000 X158.6 Y164.54
G1 F1800 X160.747 Y166.687 E149.75438
G0 F9000 X161.375 Y166.324
G1 F1800 X159.227 Y164.177 E149.93115
G0 F9000 X159.855 Y163.815
G1 F1800 X162.003 Y165.962 E150.10792
G0 F9000 X162.63 Y165.6
G1 F1800 X160.482 Y163.452 E150.28473
G0 F9000 X161.11 Y163.09
G1 F1800 X163.258 Y165.238 E150.46154
G0 F9000 X163.886 Y164.876
G1 F1800 X161.737 Y162.727 E150.63844
G0 F9000 X162.365 Y162.365
G1 F1800 X164.513 Y164.513 E150.81525
G0 F9000 X165.141 Y164.151
G1 F1800 X162.993 Y162.003 E150.99206
G0 F9000 X163.62 Y161.641
G1 F1800 X165.768 Y163.788 E151.16883
G0 F9000 X166.396 Y163.426
G1 F1800 X164.248 Y161.279 E151.3456
G0 F9000 X164.876 Y160.916
G1 F1800 X167.023 Y163.063 E151.52233
G0 F9000 X167.651 Y162.701
G1 F1800 X165.503 Y160.554 E151.6991
G0 F9000 X166.131 Y160.191
G1 F1800 X168.279 Y162.339 E151.87592
G0 F9000 X168.906 Y161.976
G1 F1800 X166.759 Y159.829 E152.05264
G0 F9000 X167.387 Y159.467
G1 F1800 X169.534 Y161.614 E152.22937
G0 F9000 X170.161 Y161.252
G1 F1800 X168.014 Y159.104 E152.40614
G0 F9000 X168.642 Y158.742
G1 F1800 X170.789 Y160.89 E152.58292
G0 F9000 X171.417 Y160.528
G1 F1800 X169.269 Y158.379 E152.75977
G0 F9000 X169.897 Y158.017
G1 F1800 X172.044 Y160.165 E152.93654
G0 F9000 X172.672 Y159.803
G1 F1800 X170.524 Y157.655 E153.11335
G0 F9000 X171.152 Y157.293
G1 F1800 X173.299 Y159.44 E153.29008
G0 F9000 X173.927 Y159.078
G1 F1800 X171.78 Y156.931 E153.46681
G0 F9000 X172.407 Y156.568
G1 F1800 X174.554 Y158.715 E153.64354
G0 F9000 X175.182 Y158.353
G1 F1800 X173.035 Y156.206 E153.82027
G0 F9000 X173.662 Y155.843
G1 F1800 X175.81 Y157.991 E153.99708
G0 F9000 X176.437 Y157.628
G1 F1800 X174.29 Y155.481 E154.17381
G0 F9000 X174.917 Y155.118
G1 F1800 X177.065 Y157.266 E154.35062
G0 F9000 X177.693 Y156.904
G1 F1800 X175.545 Y154.756 E154.52743
G0 F9000 X176.173 Y154.394
G1 F1800 X178.321 Y156.542 E154.70425
G0 F9000 X178.948 Y156.18
G1 F1800 X176.8 Y154.031 E154.8811
G0 F9000 X177.428 Y153.669
G1 F1800 X179.576 Y155.817 E155.05791
G0 F9000 X180.204 Y155.455
G1 F1800 X178.055 Y153.307 E155.23476
G0 F9000 X178.683 Y152.945
G1 F1800 X180.831 Y155.092 E155.41153
G0 F9000 X181.459 Y154.73
G1 F1800 X179.31 Y152.582 E155.58839
G0 F9000 X179.938 Y152.22
G1 F1800 X182.086 Y154.367 E155.76516
G0 F9000 X182.714 Y154.005
G1 F1800 X180.566 Y151.858 E155.94193
G0 F9000 X181.127 Y151.429
G1 F1800 X183.342 Y153.643 E156.12421
G0 F9000 X183.969 Y153.28
G1 F1800 X181.462 Y150.774 E156.33054
G0 F9000 X181.524 Y149.846
G1 F1800 X184.469 Y152.79 E156.57291
G0 F9000 X184.469 Y151.8
G1 F1800 X181.524 Y148.856 E156.81529
G0 F9000 X181.524 Y147.866
G1 F1800 X184.469 Y150.811 E157.0577
G0 F9000 X184.469 Y149.821
G1 F1800 X181.524 Y146.876 E157.30012
G0 F9000 X181.524 Y145.886
G1 F1800 X184.469 Y148.831 E157.54254
G0 F9000 X184.469 Y147.841
G1 F1800 X181.524 Y144.896 E157.78495
G0 F9000 X181.524 Y143.906
G1 F1800 X184.469 Y146.851 E158.02737
G0 F9000 X184.469 Y145.861
G1 F1800 X181.524 Y142.916 E158.26979
G0 F9000 X181.524 Y141.926
G1 F1800 X184.469 Y144.871 E158.5122
G0 F9000 X184.469 Y143.881
G1 F1800 X181.524 Y140.936 E158.75462
G0 F9000 X181.524 Y139.947
G1 F1800 X184.469 Y142.891 E158.997
G0 F9000 X184.469 Y141.901
G1 F1800 X181.524 Y138.957 E159.23937
G0 F9000 X181.524 Y137.967
G1 F1800 X184.469 Y140.911 E159.48175
G0 F9000 X184.469 Y139.921
G1 F1800 X181.525 Y136.977 E159.72408
G0 F9000 X181.525 Y135.987
G1 F1800 X184.469 Y138.931 E159.96641
G0 F9000 X184.469 Y137.941
G1 F1800 X181.525 Y134.997 E160.20875
G0 F9000 X181.525 Y134.008
G1 F1800 X184.469 Y136.951 E160.45104
G0 F9000 X184.469 Y135.961
G1 F1800 X181.525 Y133.018 E160.69334
G0 F9000 X181.525 Y132.028
G1 F1800 X184.469 Y134.971 E160.93563
G0 F9000 X184.469 Y133.981
G1 F1800 X181.525 Y131.038 E161.17792
G0 F9000 X181.525 Y130.048
G1 F1800 X184.469 Y132.991 E161.42021
G0 F9000 X184.469 Y132.001
G1 F1800 X181.525 Y129.058 E161.66251
G0 F9000 X181.525 Y128.068
G1 F1800 X184.469 Y131.012 E161.90484
G0 F9000 X184.469 Y130.022
G1 F1800 X181.525 Y127.078 E162.14718
G0 F9000 X181.525 Y126.088
G1 F1800 X184.469 Y129.032 E162.38951
G0 F9000 X184.469 Y128.042
G1 F1800 X181.525 Y125.098 E162.63185
G0 F9000 X181.525 Y124.108
G1 F1800 X184.469 Y127.052 E162.87418
G0 F9000 X184.469 Y126.062
G1 F1800 X181.526 Y123.119 E163.11643
G0 F9000 X181.526 Y122.129
G1 F1800 X184.469 Y125.072 E163.35868
G0 F9000 X184.469 Y124.082
G1 F1800 X181.526 Y121.139 E163.60094
G0 F9000 X181.526 Y120.149
G1 F1800 X184.469 Y123.092 E163.84319
G0 F9000 X184.469 Y122.102
G1 F1800 X181.526 Y119.159 E164.08544
G0 F9000 X181.526 Y118.169
G1 F1800 X184.469 Y121.112 E164.32769
G0 F9000 X184.469 Y120.122
G1 F1800 X181.526 Y117.179 E164.56994
G0 F9000 X181.526 Y116.189
G1 F1800 X184.469 Y119.132 E164.8122
G0 F9000 X184.469 Y118.142
G1 F1800 X181.526 Y115.199 E165.05445
G0 F9000 X181.526 Y114.209
G1 F1800 X184.469 Y117.152 E165.2967
G0 F9000 X184.469 Y116.162
G1 F1800 X181.526 Y113.219 E165.53895
G0 F9000 X181.526 Y112.229
G1 F1800 X184.469 Y115.172 E165.7812
G0 F9000 X184.469 Y114.182
G1 F1800 X181.526 Y111.239 E166.02346
G0 F9000 X181.526 Y110.249
G1 F1800 X184.469 Y113.192 E166.26571
G0 F9000 X184.469 Y112.202
G1 F1800 X181.527 Y109.26 E166.50788
G0 F9000 X181.527 Y108.27
G1 F1800 X184.469 Y111.213 E166.75009
G0 F9000 X184.469 Y110.223
G1 F1800 X181.527 Y107.28 E166.9923
G0 F9000 X181.527 Y106.29
G1 F1800 X184.469 Y109.233 E167.23451
G0 F9000 X184.469 Y108.243
G1 F1800 X181.527 Y105.3 E167.47672
G0 F9000 X181.527 Y104.31
G1 F1800 X184.469 Y107.253 E167.71893
G0 F9000 X184.469 Y106.263
G1 F1800 X181.527 Y103.321 E167.9611
