;FLAVOR:Marlin
;TIME:5867
;Filament used: 14.8218m
;Layer height: 0.4
;MINX:34.35
;MINY:22.649
;MINZ:0.2
;MAXX:185.65
;MAXY:197.352
;MAXZ:23.4
;Generated with Cura_SteamEngine 5.2.1
M140 S60
M105
M190 S60
M104 S210
M105
M109 S210
M82 ;absolute extrusion mode
M201 X500.00 Y500.00 Z100.00 E5000.00 ;Setup machine max acceleration
M203 X500.00 Y500.00 Z10.00 E50.00 ;Setup machine max feedrate
M204 P500.00 R1000.00 T500.00 ;Setup Print/Retract/Travel acceleration
M205 X8.00 Y8.00 Z0.40 E5.00 ;Setup Jerk
M220 S100 ;Reset Feedrate
M221 S100 ;Reset Flowrate

G28 ;Home
G29

G92 E0 ;Reset Extruder
G1 Z2.0 F3000 ;Move Z Axis up
G1 X10.1 Y20 Z0.28 F5000.0 ;Move to start position
G1 X10.1 Y200.0 Z0.28 F1500.0 E15 ;Draw the first line
G1 X10.4 Y200.0 Z0.28 F5000.0 ;Move to side a little
G1 X10.4 Y20 Z0.28 F1500.0 E30 ;Draw the second line
G92 E0 ;Reset Extruder
G1 Z2.0 F3000 ;Move Z Axis up
G92 E0
G92 E0
G1 F1500 E-6
;LAYER_COUNT:59
;LAYER:0
M107
M205 X7 Y7
;MESH:Shelf.stl
G0 F9000 X109.952 Y192.091 Z0.2
;TYPE:WALL-INNER
G1 F1500 E0
G1 F1800 X109.483 Y191.973 E0.02533
G1 X39.321 Y151.466 E4.26931
G1 X39.094 Y151.29 E4.28436
G1 X38.883 Y151.008 E4.30281
G1 X38.75 Y150.545 E4.32804
G1 X38.75 Y69.525 E8.57225
G1 X38.789 Y69.24 E8.58732
G1 X38.926 Y68.919 E8.6056
G1 X39.262 Y68.567 E8.6311
G1 X109.427 Y28.058 E12.87526
G1 X109.693 Y27.95 E12.8903
G1 X110.044 Y27.909 E12.90881
G1 X110.517 Y28.026 E12.93434
G1 X180.679 Y68.535 E17.17837
G1 X180.906 Y68.711 E17.19341
G1 X181.071 Y68.933 E17.2079
G1 X181.199 Y69.26 E17.2263
G1 X181.25 Y69.586 E17.24359
G1 X181.25 Y150.476 E21.48098
G1 X181.211 Y150.761 E21.49605
G1 X181.101 Y151.015 E21.51055
G1 X180.987 Y151.173 E21.52076
G1 X180.737 Y151.435 E21.53973
G1 X111.35 Y191.494 E25.73681
G0 F1620 X110.573 Y191.942
G0 X110.307 Y192.05
G0 X109.952 Y192.091
G0 F9000 X110.042 Y191.382
;TYPE:WALL-OUTER
G1 F1800 X109.759 Y191.325 E25.75278
G1 X39.671 Y150.86 E30.22783
G1 X39.54 Y150.727 E30.23815
G1 X39.455 Y150.476 E30.2528
G1 X39.45 Y69.461 E34.73252
G1 X39.499 Y69.345 E34.73949
G1 X39.687 Y69.13 E34.75528
G1 X109.833 Y28.631 E39.23405
G1 X109.958 Y28.618 E39.241
G1 X110.241 Y28.675 E39.25696
G1 X180.329 Y69.141 E43.73204
G1 X180.46 Y69.274 E43.74236
G1 X180.55 Y69.586 E43.76031
G1 X180.55 Y150.54 E48.23666
G1 X180.501 Y150.656 E48.24363
G1 X180.312 Y150.872 E48.2595
G1 X111.394 Y190.661 E52.65983
G0 F1620 X110.167 Y191.369
G0 X110.042 Y191.382
G1 F1500 E46.65983
G0 F9000 X109.895 Y192.073
G0 X110.025 Y192.412
G0 X110.806 Y195.442
G0 X110 Y196.312
;TYPE:WALL-INNER
G1 F1500 E52.65983
G1 F1800 X184.75 Y153.156 E57.18133
G1 X184.75 Y67.977 E61.64341
G1 X184.75 Y66.844 E61.70276
G1 X110 Y23.688 E66.22426
G1 X35.251 Y66.844 E70.74572
G1 X35.251 Y153.156 E75.26715
G1 X108.665 Y195.541 E79.70785
G0 F1620 X110 Y196.312
G0 F9000 X110 Y197.12
;TYPE:WALL-OUTER
G1 F1800 X185.45 Y153.56 E84.52524
G1 X185.45 Y67.977 E89.25755
G1 X185.45 Y66.44 E89.34253
G1 X110 Y22.88 E94.15992
G1 X34.551 Y66.44 E98.97726
G1 X34.551 Y153.56 E103.79456
G1 X108.665 Y196.349 E108.52665
G0 F1620 X110 Y197.12
G0 F9000 X110 Y196.329
G0 X109.809 Y195.912
G0 X110 Y195.583
;TYPE:SKIN
G1 F1800 X184.12 Y152.79 E113.50822
G1 X184.12 Y67.978 E118.44473
G1 X184.12 Y67.209 E118.48949
G1 X110 Y24.417 E123.47103
G1 X35.882 Y67.21 E128.4525
G1 X35.882 Y152.79 E133.4337
G1 X108.665 Y194.812 E138.32544
G0 F1620 X110 Y195.583
G1 F1500 E132.32544
G0 F9000 X109.808 Y195.912
G0 X110.841 Y195.424
G0 X110.389 Y192.371
G0 X110.026 Y192.331
G1 F1500 E138.32544
G0 F9000 X110.019 Y192.711
G1 F1800 X109.725 Y192.681 E138.34264
G1 X109.232 Y192.557 E138.37223
G1 X39.004 Y152.011 E143.09222
G1 X38.643 Y151.737 E143.1186
G1 X38.375 Y151.372 E143.14496
G1 X38.259 Y151.107 E143.1618
G1 X38.125 Y150.637 E143.19024
G1 X38.123 Y69.478 E147.91412
G1 X38.18 Y69.063 E147.9385
G1 X38.4 Y68.56 E147.97046
G1 X38.879 Y68.06 E148.01076
G1 X109.153 Y27.491 E152.73374
G1 X109.53 Y27.337 E152.75745
G1 X109.979 Y27.286 E152.78375
G1 X110.275 Y27.319 E152.80108
G1 X110.77 Y27.443 E152.83079
G1 X180.996 Y67.99 E157.55071
G1 X181.357 Y68.264 E157.57709
G1 X181.625 Y68.629 E157.60344
G1 X181.795 Y69.018 E157.62815
G1 X181.876 Y69.536 E157.65867
G1 X181.88 Y150.47 E162.36945
G1 X181.825 Y150.925 E162.39613
G1 X181.649 Y151.335 E162.4221
G1 X181.446 Y151.606 E162.44181
G1 X181.119 Y151.943 E162.46914
G1 X111.437 Y192.169 E167.15229
G0 F1620 X110.847 Y192.509
G0 X110.468 Y192.664
G0 X110.019 Y192.711
G1 F1500 E161.15229
G0 F9000 X110.026 Y192.331
G0 X39.157 Y151.753
G0 X35.6 Y151.759
G0 X35.501 Y152.055
G1 F1500 E167.15229
G0 F9000 X36.231 Y152.055
G1 F1800 X37.489 Y153.313 E167.25585
G0 F9000 X37.122 Y153.948
G0 X35.567 Y152.974
G0 X35.5 Y151.066
G0 X36.231 Y151.065
G1 F1800 X39.831 Y154.665 E167.55218
G1 F1500 E161.55218
G0 F9000 X39.463 Y155.299
G0 X39.227 Y155.071
G0 X40.648 Y152.613
G1 F1500 E167.55218
G0 F9000 X40.321 Y153.175
G1 F1800 X44.515 Y157.37 E167.89745
G1 F1500 E161.89745
G0 F9000 X44.147 Y158.003
G0 X43.922 Y157.759
G0 X45.333 Y155.318
G1 F1500 E167.89745
G0 F9000 X45.005 Y155.88
G1 F1800 X49.2 Y160.074 E168.24272
G1 F1500 E162.24272
G0 F9000 X48.832 Y160.708
G0 X48.607 Y160.464
G0 X50.018 Y158.023
G1 F1500 E168.24272
G0 F9000 X49.69 Y158.584
G1 F1800 X53.885 Y162.779 E168.58803
G1 F1500 E162.58803
G0 F9000 X53.517 Y163.413
G0 X53.281 Y163.185
G0 X54.702 Y160.727
G1 F1500 E168.58803
G0 F9000 X54.375 Y161.289
G1 F1800 X58.569 Y165.484 E168.9333
G1 F1500 E162.9333
G0 F9000 X58.201 Y166.117
G0 X57.964 Y165.889
G0 X59.385 Y163.431
G1 F1500 E168.9333
G0 F9000 X59.058 Y163.993
G1 F1800 X63.254 Y168.188 E169.27865
G1 F1500 E163.27865
G0 F9000 X62.886 Y168.822
G0 X62.66 Y168.577
G0 X64.071 Y166.136
G1 F1500 E169.27865
G0 F9000 X63.743 Y166.698
G1 F1800 X67.938 Y170.893 E169.62396
G1 F1500 E163.62396
G0 F9000 X67.57 Y171.526
G0 X67.333 Y171.298
G0 X68.754 Y168.84
G1 F1500 E169.62396
G0 F9000 X68.428 Y169.402
G1 F1800 X72.623 Y173.598 E169.96931
G1 F1500 E163.96931
G0 F9000 X72.255 Y174.231
G0 X72.018 Y174.003
G0 X73.439 Y171.545
G1 F1500 E169.96931
G0 F9000 X73.112 Y172.107
G1 F1800 X77.307 Y176.302 E170.31462
G1 F1500 E164.31462
G0 F9000 X76.939 Y176.936
G0 X76.714 Y176.691
G0 X78.125 Y174.25
G1 F1500 E170.31462
G0 F9000 X77.797 Y174.812
G1 F1800 X81.992 Y179.007 E170.65993
G1 F1500 E164.65993
G0 F9000 X81.624 Y179.64
G0 X81.387 Y179.412
G0 X82.808 Y176.954
G1 F1500 E170.65993
G0 F9000 X82.481 Y177.517
G1 F1800 X86.677 Y181.712 E171.00528
G1 F1500 E165.00528
G0 F9000 X86.309 Y182.345
G0 X86.071 Y182.116
G0 X87.492 Y179.658
G1 F1500 E171.00528
G0 F9000 X87.165 Y180.221
G1 F1800 X91.361 Y184.416 E171.35063
G1 F1500 E165.35063
G0 F9000 X90.993 Y185.05
G0 X90.756 Y184.821
G0 X92.177 Y182.363
G1 F1500 E171.35063
G0 F9000 X91.85 Y182.925
G1 F1800 X96.046 Y187.121 E171.69602
G1 F1500 E165.69602
G0 F9000 X95.678 Y187.754
G0 X95.451 Y187.509
G0 X96.862 Y185.068
G1 F1500 E171.69602
G0 F9000 X96.534 Y185.63
G1 F1800 X100.73 Y189.826 E172.04141
G1 F1500 E166.04141
G0 F9000 X100.362 Y190.459
G0 X100.125 Y190.23
G0 X101.546 Y187.772
G1 F1500 E172.04141
G0 F9000 X101.219 Y188.335
G1 F1800 X105.415 Y192.531 E172.38681
G1 F1500 E166.38681
G0 F9000 X105.047 Y193.163
G0 X104.81 Y192.935
G0 X106.231 Y190.477
G1 F1500 E172.38681
G0 F9000 X105.904 Y191.039
G1 F1800 X110.027 Y195.162 E172.72619
G0 F9000 X110.654 Y194.8
G1 F1800 X108.246 Y192.391 E172.92444
G1 F1500 E166.92444
G0 F9000 X108.613 Y191.761
G0 X108.84 Y192.006
G0 X107.429 Y194.447
G1 F1500 E172.92444
G0 F9000 X107.758 Y193.883
G1 F1800 X103.561 Y189.687 E173.26988
G1 F1500 E167.26988
G0 F9000 X103.928 Y189.056
G0 X104.155 Y189.301
G0 X102.744 Y191.742
G1 F1500 E173.26988
G0 F9000 X103.073 Y191.179
G1 F1800 X98.877 Y186.983 E173.61527
G1 F1500 E167.61527
G0 F9000 X99.244 Y186.351
G0 X99.481 Y186.58
G0 X98.06 Y189.038
G1 F1500 E173.61527
G0 F9000 X98.388 Y188.474
G1 F1800 X94.192 Y184.278 E173.96066
G1 F1500 E167.96066
G0 F9000 X94.559 Y183.647
G0 X94.786 Y183.892
G0 X93.375 Y186.333
G1 F1500 E173.96066
G0 F9000 X93.704 Y185.769
G1 F1800 X89.508 Y181.573 E174.30605
G1 F1500 E168.30605
G0 F9000 X89.875 Y180.942
G0 X90.101 Y181.187
G0 X88.69 Y183.628
G1 F1500 E174.30605
G0 F9000 X89.019 Y183.064
G1 F1800 X84.823 Y178.869 E174.6514
G1 F1500 E168.6514
G0 F9000 X85.19 Y178.237
G0 X85.417 Y178.483
G0 X84.006 Y180.924
G1 F1500 E174.6514
G0 F9000 X84.335 Y180.36
G1 F1800 X80.139 Y176.164 E174.9968
G1 F1500 E168.9968
G0 F9000 X80.506 Y175.533
G0 X80.732 Y175.778
G0 X79.321 Y178.219
G1 F1500 E174.9968
G0 F9000 X79.65 Y177.655
G1 F1800 X75.454 Y173.459 E175.34219
G1 F1500 E169.34219
G0 F9000 X75.821 Y172.828
G0 X76.048 Y173.074
G0 X74.637 Y175.515
G1 F1500 E175.34219
G0 F9000 X74.966 Y174.95
G1 F1800 X70.77 Y170.755 E175.68754
G1 F1500 E169.68754
G0 F9000 X71.137 Y170.124
G0 X71.363 Y170.369
G0 X69.952 Y172.81
G1 F1500 E175.68754
G0 F9000 X70.281 Y172.246
G1 F1800 X66.086 Y168.05 E176.03289
G1 F1500 E170.03289
G0 F9000 X66.452 Y167.419
G0 X66.678 Y167.664
G0 X65.267 Y170.105
G1 F1500 E176.03289
G0 F9000 X65.596 Y169.541
G1 F1800 X61.401 Y165.346 E176.3782
G1 F1500 E170.3782
G0 F9000 X61.768 Y164.715
G0 X61.994 Y164.96
G0 X60.583 Y167.401
G1 F1500 E176.3782
G0 F9000 X60.912 Y166.836
G1 F1800 X56.717 Y162.641 E176.72351
G1 F1500 E170.72351
G0 F9000 X57.084 Y162.011
G0 X57.309 Y162.255
G0 X55.898 Y164.696
G1 F1500 E176.72351
G0 F9000 X56.227 Y164.132
G1 F1800 X52.032 Y159.936 E177.06886
G1 F1500 E171.06886
G0 F9000 X52.398 Y159.305
G0 X52.625 Y159.551
G0 X51.214 Y161.992
G1 F1500 E177.06886
G0 F9000 X51.543 Y161.427
G1 F1800 X47.347 Y157.232 E177.41421
G1 F1500 E171.41421
G0 F9000 X47.714 Y156.601
G0 X47.94 Y156.846
G0 X46.529 Y159.287
G1 F1500 E177.41421
G0 F9000 X46.858 Y158.722
G1 F1800 X42.663 Y154.527 E177.75952
G1 F1500 E171.75952
G0 F9000 X43.03 Y153.897
G0 X43.255 Y154.141
G0 X41.844 Y156.582
G1 F1500 E177.75952
G0 F9000 X42.173 Y156.018
G1 F1800 X36.231 Y150.075 E178.24868
G0 F9000 X36.231 Y149.085
G1 F1800 X37.77 Y150.624 E178.37536
G0 F9000 X37.77 Y149.634
G1 F1800 X36.231 Y148.095 E178.50204
G0 F9000 X36.231 Y147.105
G1 F1800 X37.77 Y148.644 E178.62872
G0 F9000 X37.77 Y147.654
G1 F1800 X36.231 Y146.115 E178.75541
G0 F9000 X36.231 Y145.125
G1 F1800 X37.77 Y146.664 E178.88209
G0 F9000 X37.77 Y145.674
G1 F1800 X36.231 Y144.135 E179.00877
G0 F9000 X36.231 Y143.145
G1 F1800 X37.77 Y144.684 E179.13545
G0 F9000 X37.77 Y143.694
G1 F1800 X36.231 Y142.156 E179.26209
G0 F9000 X36.231 Y141.166
G1 F1800 X37.77 Y142.704 E179.38874
G0 F9000 X37.77 Y141.714
G1 F1800 X36.231 Y140.176 E179.51538
G0 F9000 X36.231 Y139.186
G1 F1800 X37.77 Y140.724 E179.64202
G0 F9000 X37.77 Y139.734
G1 F1800 X36.231 Y138.196 E179.76866
G0 F9000 X36.231 Y137.206
G1 F1800 X37.77 Y138.744 E179.8953
G0 F9000 X37.77 Y137.755
G1 F1800 X36.231 Y136.216 E180.02198
G0 F9000 X36.231 Y135.226
G1 F1800 X37.77 Y136.765 E180.14866
G0 F9000 X37.77 Y135.775
G1 F1800 X36.231 Y134.236 E180.27535
G0 F9000 X36.231 Y133.246
G1 F1800 X37.77 Y134.785 E180.40203
G0 F9000 X37.77 Y133.795
G1 F1800 X36.231 Y132.256 E180.52871
G0 F9000 X36.231 Y131.266
G1 F1800 X37.77 Y132.805 E180.65539
G0 F9000 X37.77 Y131.815
G1 F1800 X36.231 Y130.276 E180.78208
G0 F9000 X36.231 Y129.286
G1 F1800 X37.77 Y130.825 E180.90876
G0 F9000 X37.77 Y129.835
G1 F1800 X36.231 Y128.296 E181.03544
G0 F9000 X36.231 Y127.306
G1 F1800 X37.77 Y128.845 E181.16212
G0 F9000 X37.77 Y127.855
G1 F1800 X36.231 Y126.316 E181.2888
G0 F9000 X36.231 Y125.326
G1 F1800 X37.77 Y126.865 E181.41549
G0 F9000 X37.77 Y125.875
G1 F1800 X36.231 Y124.336 E181.54217
G0 F9000 X36.231 Y123.346
G1 F1800 X37.77 Y124.885 E181.66885
G0 F9000 X37.77 Y123.895
G1 F1800 X36.231 Y122.357 E181.79549
G0 F9000 X36.231 Y121.367
G1 F1800 X37.77 Y122.905 E181.92213
G0 F9000 X37.77 Y121.915
G1 F1800 X36.231 Y120.377 E182.04877
G0 F9000 X36.231 Y119.387
G1 F1800 X37.77 Y120.925 E182.17542
G0 F9000 X37.77 Y119.935
G1 F1800 X36.231 Y118.397 E182.30206
G0 F9000 X36.231 Y117.407
G1 F1800 X37.77 Y118.945 E182.4287
G0 F9000 X37.77 Y117.956
G1 F1800 X36.231 Y116.417 E182.55538
G0 F9000 X36.231 Y115.427
G1 F1800 X37.77 Y116.966 E182.68206
G0 F9000 X37.77 Y115.976
G1 F1800 X36.231 Y114.437 E182.80874
G0 F9000 X36.231 Y113.447
G1 F1800 X37.77 Y114.986 E182.93543
G0 F9000 X37.77 Y113.996
G1 F1800 X36.231 Y112.457 E183.06211
G0 F9000 X36.231 Y111.467
G1 F1800 X37.77 Y113.006 E183.18879
G0 F9000 X37.77 Y112.016
G1 F1800 X36.231 Y110.477 E183.31547
G0 F9000 X36.231 Y109.487
G1 F1800 X37.77 Y111.026 E183.44216
G0 F9000 X37.77 Y110.036
G1 F1800 X36.231 Y108.497 E183.56884
G0 F9000 X36.231 Y107.507
G1 F1800 X37.77 Y109.046 E183.69552
G0 F9000 X37.77 Y108.056
G1 F1800 X36.231 Y106.517 E183.8222
G0 F9000 X36.231 Y105.527
G1 F1800 X37.77 Y107.066 E183.94888
G0 F9000 X37.77 Y106.076
G1 F1800 X36.231 Y104.537 E184.07557
G0 F9000 X36.231 Y103.548
G1 F1800 X37.77 Y105.086 E184.20221
G0 F9000 X37.77 Y104.096
G1 F1800 X36.231 Y102.558 E184.32885
G0 F9000 X36.231 Y101.568
G1 F1800 X37.77 Y103.106 E184.45549
G0 F9000 X37.77 Y102.116
G1 F1800 X36.231 Y100.578 E184.58213
G0 F9000 X36.231 Y99.588
G1 F1800 X37.77 Y101.126 E184.70877
G0 F9000 X37.77 Y100.136
G1 F1800 X36.231 Y98.598 E184.83541
G0 F9000 X36.231 Y97.608
G1 F1800 X37.77 Y99.146 E184.96205
G0 F9000 X37.77 Y98.157
G1 F1800 X36.231 Y96.618 E185.08874
G0 F9000 X36.231 Y95.628
G1 F1800 X37.77 Y97.167 E185.21542
G0 F9000 X37.77 Y96.177
G1 F1800 X36.231 Y94.638 E185.3421
G0 F9000 X36.231 Y93.648
G1 F1800 X37.77 Y95.187 E185.46878
G0 F9000 X37.77 Y94.197
G1 F1800 X36.231 Y92.658 E185.59546
G0 F9000 X36.231 Y91.668
G1 F1800 X37.77 Y93.207 E185.72215
G0 F9000 X37.77 Y92.217
G1 F1800 X36.231 Y90.678 E185.84883
G0 F9000 X36.231 Y89.688
G1 F1800 X37.77 Y91.227 E185.97551
G0 F9000 X37.77 Y90.237
G1 F1800 X36.231 Y88.698 E186.10219
G0 F9000 X36.231 Y87.708
G1 F1800 X37.77 Y89.247 E186.22888
G0 F9000 X37.77 Y88.257
G1 F1800 X36.231 Y86.718 E186.35556
G0 F9000 X36.231 Y85.728
G1 F1800 X37.77 Y87.267 E186.48224
G0 F9000 X37.77 Y86.277
G1 F1800 X36.231 Y84.738 E186.60892
G0 F9000 X36.231 Y83.749
G1 F1800 X37.77 Y85.287 E186.73556
G0 F9000 X37.77 Y84.297
G1 F1800 X36.231 Y82.759 E186.8622
G0 F9000 X36.231 Y81.769
G1 F1800 X37.77 Y83.307 E186.98885
G0 F9000 X37.77 Y82.317
G1 F1800 X36.231 Y80.779 E187.11549
G0 F9000 X36.231 Y79.789
G1 F1800 X37.77 Y81.327 E187.24213
G0 F9000 X37.77 Y80.337
G1 F1800 X36.231 Y78.799 E187.36877
G0 F9000 X36.231 Y77.809
G1 F1800 X37.77 Y79.347 E187.49541
G0 F9000 X37.77 Y78.358
G1 F1800 X36.231 Y76.819 E187.62209
G0 F9000 X36.231 Y75.829
G1 F1800 X37.77 Y77.368 E187.74877
G0 F9000 X37.77 Y76.378
G1 F1800 X36.231 Y74.839 E187.87546
G0 F9000 X36.231 Y73.849
G1 F1800 X37.77 Y75.388 E188.00214
G0 F9000 X37.77 Y74.398
G1 F1800 X36.231 Y72.859 E188.12882
G0 F9000 X36.231 Y71.869
G1 F1800 X37.77 Y73.408 E188.2555
G0 F9000 X37.77 Y72.418
G1 F1800 X36.231 Y70.879 E188.38219
G0 F9000 X36.231 Y69.889
G1 F1800 X37.77 Y71.428 E188.50887
G0 F9000 X37.77 Y70.438
G1 F1800 X36.231 Y68.899 E188.63555
G0 F9000 X36.231 Y67.909
G1 F1800 X37.772 Y69.451 E188.76244
G0 F9000 X37.973 Y68.661
G1 F1800 X36.543 Y67.231 E188.88015
G0 F9000 X37.171 Y66.869
G1 F1800 X38.378 Y68.077 E188.97954
G0 F9000 X38.921 Y67.629
G1 F1800 X37.799 Y66.507 E189.0719
G0 F9000 X38.426 Y66.144
G1 F1800 X39.549 Y67.267 E189.16434
G0 F9000 X40.176 Y66.905
G1 F1800 X39.054 Y65.782 E189.25674
G0 F9000 X39.681 Y65.42
G1 F1800 X40.804 Y66.542 E189.34914
G0 F9000 X41.432 Y66.18
G1 F1800 X40.309 Y65.058 E189.44153
G0 F9000 X40.936 Y64.695
G1 F1800 X42.059 Y65.818 E189.53397
G0 F9000 X42.687 Y65.456
G1 F1800 X41.564 Y64.333 E189.62641
G0 F9000 X42.191 Y63.97
G1 F1800 X43.314 Y65.093 E189.71885
G0 F9000 X43.942 Y64.731
G1 F1800 X42.819 Y63.608 E189.81129
G0 F9000 X43.447 Y63.246
G1 F1800 X44.569 Y64.368 E189.90365
G0 F9000 X45.197 Y64.006
G1 F1800 X44.074 Y62.883 E189.99609
G0 F9000 X44.702 Y62.521
G1 F1800 X45.825 Y63.644 E190.08853
G0 F9000 X46.452 Y63.281
G1 F1800 X45.329 Y62.158 E190.18097
G0 F9000 X45.957 Y61.796
G1 F1800 X47.08 Y62.919 E190.27341
G0 F9000 X47.707 Y62.557
G1 F1800 X46.584 Y61.434 E190.36585
G0 F9000 X47.212 Y61.072
